!!!!SEGMENT: pl-cz--iii-671--003_lscigalski-franciszek--missa-in-es-quoniam.krn
!!!cenid: 18xx:1119
!!!COM: Ścigalski, Franciszek
!!!COM-rismid: pe30002948
!!!CDT: 1782/01/29-1846/09/27
!!!CNT: Polish
!!!OPR: Missa in Es
!!!OTL: Quoniam
!!!OMV: 003
!!!PDT:
!!!AGN: Sacred; Mass
!!!SMS-siglum: PL-CZ
!!!SMS-shelfmark: III-671
!!!SMS-shelfwork: 001-003 M
!!!SMS-variant:
!!!SMS-altvar:
!!!NIFC-rismid: 300001315
!!!URL-scan: http://repozytorium.nifc.pl/skany/pl-cz-nut--iii-671
!!!ONB-nifc: UWAGA: części Mszy: Kyrie, Gloria, Quoniam, Patrem, Sanctus, Benedictus, Agnus Dei
!!!key: E-
**kern	**fba	**kern	**dynam	**kern	**dynam	**kern	**dynam	**kern	**dynam	**kern	**text	**kern	**text	**kern	**text	**kern	**text	**kern	**dynam	**kern	**dynam	**kern	**dynam	**kern	**dynam	**kern	**dynam	**kern	**dynam
*	*	*	*	*group4	*	*group4	*	*group4	*	*group3	*	*group3	*	*group3	*	*group3	*	*group2	*	*group2	*	*group1	*	*group1	*	*group1	*	*group1	*
*part14	*part14	*part14	*part14	*part13	*part13	*part12	*part12	*part11	*part11	*part10	*part10	*part9	*part9	*part8	*part8	*part7	*part7	*part6	*part6	*part5	*part5	*part4	*part4	*part3	*part3	*part2	*part2	*part1	*part1
*staff15	*	*staff14	*	*staff13	*	*staff12	*	*staff11	*	*staff10	*staff10	*staff9	*staff9	*staff8	*staff8	*staff7	*staff7	*staff6	*	*staff5	*	*staff4	*	*staff3	*	*staff2	*	*staff1	*
*I"Organo.	*	*I"Organo.	*	*I"Viola	*	*I"Violino Secundo	*	*I"Violino Primo	*	*I"Baſso	*	*I"Tenore.	*	*I"Alto	*	*I"Canto	*	*I"Cornu Secundo Dis.	*	*I"Cornu Primo in Dis	*	*I"Clarinetto Secundo	*	*I"Clarinetto. Primo	*	*I"Fluto Secondo	*	*I"Flauto Primo Obligatt	*
*I'org	*	*I'org	*	*I'vla	*	*I'vl II	*	*I'vl I	*	*I'B	*	*I'T	*	*I'A	*	*I'S	*	*I'cor 2 in Dis	*	*I'cor 1 in Dis	*	*I'cl 2	*	*I'cl 1	*	*I'fl 2	*	*I'fl 1	*
*Iorgano	*	*Iorgano	*	*Iviola	*	*Ivioln	*	*Ivioln	*	*Ibass	*	*Itenor	*	*Ialto	*	*Isoprn	*	*Icor	*	*Icor	*	*Iclars	*	*Iclars	*	*Iflt	*	*Iflt	*
*ICklav	*	*ICklav	*	*ICstr	*	*ICstr	*	*ICstr	*	*ICvox	*	*ICvox	*	*ICvox	*	*ICvox	*	*ICbras	*	*ICbras	*	*ICww	*	*ICww	*	*ICww	*	*ICww	*
*IGcont	*	*	*	*	*	*	*	*	*	*IGcoro	*	*IGcoro	*	*IGcoro	*	*IGcoro	*	*	*	*	*	*	*	*	*	*	*	*	*
*clefF4	*	*clefG2	*	*clefC3	*	*clefG2	*	*clefG2	*	*clefF4	*	*clefC4	*	*clefC3	*	*clefC1	*	*clefG2	*	*clefG2	*	*clefG2	*	*clefG2	*	*clefG2	*	*clefG2	*
*	*	*	*	*	*	*	*	*	*	*	*	*	*	*	*	*	*	*ITrd5c9	*	*ITrd5c9	*	*ITrd1c2	*	*ITrd1c2	*	*	*	*	*
*k[b-e-a-]	*	*k[b-e-a-]	*	*k[b-e-a-]	*	*k[b-e-a-]	*	*k[b-e-a-]	*	*k[b-e-a-]	*	*k[b-e-a-]	*	*k[b-e-a-]	*	*k[b-e-a-]	*	*k[b-e-a-]	*	*k[b-e-a-]	*	*k[b-e-a-]	*	*k[b-e-a-]	*	*k[b-e-a-]	*	*k[b-e-a-]	*
*E-:	*	*E-:	*	*E-:	*	*E-:	*	*E-:	*	*E-:	*	*E-:	*	*E-:	*	*E-:	*	*E-:	*	*E-:	*	*E-:	*	*E-:	*	*E-:	*	*E-:	*
*M4/4	*	*M4/4	*	*M4/4	*	*M4/4	*	*M4/4	*	*M4/4	*	*M4/4	*	*M4/4	*	*M4/4	*	*M4/4	*	*M4/4	*	*M4/4	*	*M4/4	*	*M4/4	*	*M4/4	*
*met(c)	*	*met(c)	*	*met(c)	*	*met(c)	*	*met(c)	*	*met(c)	*	*met(c)	*	*met(c)	*	*met(c)	*	*met(c)	*	*met(c)	*	*met(c)	*	*met(c)	*	*met(c)	*	*met(c)	*
=1	=1	=1	=1	=1	=1	=1	=1	=1	=1	=1	=1	=1	=1	=1	=1	=1	=1	=1	=1	=1	=1	=1	=1	=1	=1	=1	=1	=1	=1
*2\right	*	*	*	*	*	*	*	*	*	*	*	*	*	*	*	*	*	*	*	*	*	*	*	*	*	*	*	*	*
*tremolo	*	*	*	*tremolo	*	*tremolo	*	*	*	*	*	*	*	*	*	*	*	*	*	*	*	*	*	*	*	*	*	*	*
!LO:TX:a:B:t=Allegro	!	!	!	!	!	!	!	!	!	!	!	!	!	!	!	!	!	!	!	!LO:TX:a:t=Tut	!	!	!	!	!	!	!	!LO:TX:a:t=Tutti	!
!LO:TX:a:t=Tut	!	!LO:TX:t=P:problem:partia rozpoczyna się w takcie nr 52	!	!LO:TX:a:B:t=Tempo	!LO:DY:a:t=fo	!LO:TX:a:B:t=Allo	!	!LO:TX:a:B:t=Allegro	!	!LO:TX:a:B:t=allo	!	!LO:TX:a:B:t=Allo	!	!LO:TX:a:B:t=allo	!	!LO:TX:a:B:t=Allegro	!	!LO:TX:a:B:t=Allo.	!LO:DY:a:t=for	!LO:TX:a:B:t=Allo	!	!LO:TX:a:B:t=Allo	!	!LO:TX:a:B:t=Alle&colon;	!	!LO:TX:a:B:t=Allegro	!	!LO:TX:a:B:t=Allo	!
8E-\L	5_ 3_	1ryy	.	8G/L	f	(8B-/L	.	8.b-/L	.	4.E-\	Quo-	4.e-\	Quo-	4.g\	Quo-	4.b-\	Quo-	4G/	f	4e-\	.	1b-	.	1gg	.	1gg	.	4ee-\	.
8E-\	.	.	.	8e-/	.	8g/	.	.	.	.	.	.	.	.	.	.	.	.	.	.	.	.	.	.	.	.	.	.	.
.	.	.	.	.	.	.	.	16e-/Jk	.	.	.	.	.	.	.	.	.	.	.	.	.	.	.	.	.	.	.	.	.
8E-\	.	.	.	8G/	.	8B-/	.	4e-T/	.	.	.	.	.	.	.	.	.	8G/L	.	8e-\L	.	.	.	.	.	.	.	8ee-\L	.
8E-\J	.	.	.	8e-/J	.	8g/J)	.	.	.	8E-\	-ni-	8e-\	-ni-	8g\	-ni-	8b-\	-ni-	8G/J	.	8e-\J	.	.	.	.	.	.	.	8ee-\J	.
!	!	!	!	!	!	!	!	!LO:TX:t=P:problem:mixed beam	!	!	!	!	!	!	!	!	!	!	!	!	!	!	!	!	!	!	!	!	!
8E-\L	.	.	.	8G/L	.	(8B-/L	.	8.ee-\L	.	4E-\	-am	4e-\	-am	4g\	-am	4b-\	-am	4G/	.	4e-\	.	.	.	.	.	.	.	4ee-\	.
8E-\	.	.	.	8e-/	.	8g/	.	.	.	.	.	.	.	.	.	.	.	.	.	.	.	.	.	.	.	.	.	.	.
.	.	.	.	.	.	.	.	16e-/Jk	.	.	.	.	.	.	.	.	.	.	.	.	.	.	.	.	.	.	.	.	.
8E-\	.	.	.	8G/	.	8B-/	.	4e-T/	.	4E-\	tu	4e-\	tu	4g\	tu	4b-\	tu	4G/	.	4e-\	.	.	.	.	.	.	.	4ee-\	.
8E-\J	.	.	.	8e-/J	.	8g/J)	.	.	.	.	.	.	.	.	.	.	.	.	.	.	.	.	.	.	.	.	.	.	.
=2	=2	=2	=2	=2	=2	=2	=2	=2	=2	=2	=2	=2	=2	=2	=2	=2	=2	=2	=2	=2	=2	=2	=2	=2	=2	=2	=2	=2	=2
*	*	*	*	*	*	*	*	*	*	*2\right	*	*2\right	*	*2\right	*	*2\right	*	*	*	*2\right	*	*	*	*	*	*	*	*2\right	*
8E-\L	6_ 4_	1ryy	.	8A-/L	.	(8c/L	.	8.cc/L	.	2E-\	ſo-	2e-\	ſo-	2a-\	ſo-	2cc\	ſo-	2E-/	.	2e-\	.	1cc	.	1aa-	.	1aa-	.	2ee-\	.
8E-\	.	.	.	8e-/	.	8a-/	.	.	.	.	.	.	.	.	.	.	.	.	.	.	.	.	.	.	.	.	.	.	.
.	.	.	.	.	.	.	.	16e-/Jk	.	.	.	.	.	.	.	.	.	.	.	.	.	.	.	.	.	.	.	.	.
8E-\	.	.	.	8A-/	.	8c/	.	4e-T/	.	.	.	.	.	.	.	.	.	.	.	.	.	.	.	.	.	.	.	.	.
8E-\J	.	.	.	8e-/J	.	8a-/J)	.	.	.	.	.	.	.	.	.	.	.	.	.	.	.	.	.	.	.	.	.	.	.
!	!	!	!	!	!	!	!	!LO:TX:t=P:problem:mixed beam	!	!	!	!	!	!	!	!	!	!	!	!	!	!	!	!	!	!	!	!	!
8E-\L	.	.	.	8A-/L	.	(8c/L	.	8.ee-\L	.	4E-\	-lus	4e-\	-lus	4a-\	-lus	4cc\	-lus	4E-/	.	4e-\	.	.	.	.	.	.	.	4ee-\	.
8E-\	.	.	.	8e-/	.	8a-/	.	.	.	.	.	.	.	.	.	.	.	.	.	.	.	.	.	.	.	.	.	.	.
.	.	.	.	.	.	.	.	16e-/Jk	.	.	.	.	.	.	.	.	.	.	.	.	.	.	.	.	.	.	.	.	.
!	!	!	!	!	!	!	!	!	!	!	!	!	!	!	!	!LO:SIC:v:l:s=tu	!	!	!	!	!	!	!	!	!	!	!	!	!
8E-\	.	.	.	8A-/	.	8c/	.	4e-T/	.	4E-\	tu	4e-\	tu	4a-\	tu	4cc\	ti	4E-/	.	4e-\	.	.	.	.	.	.	.	4ee-\	.
8E-\J	.	.	.	8e-/J	.	8a-/J)	.	.	.	.	.	.	.	.	.	.	.	.	.	.	.	.	.	.	.	.	.	.	.
*Xtremolo	*	*	*	*Xtremolo	*	*Xtremolo	*	*	*	*	*	*	*	*	*	*	*	*	*	*	*	*	*	*	*	*	*	*	*
=3	=3	=3	=3	=3	=3	=3	=3	=3	=3	=3	=3	=3	=3	=3	=3	=3	=3	=3	=3	=3	=3	=3	=3	=3	=3	=3	=3	=3	=3
!	!	!	!	!	!	!LO:TUP:b:problem:klamra łukowa	!	!LO:TUP:b:problem:klamra łukowa	!	!	!	!	!	!	!	!	!	!	!	!	!	!	!	!	!	!	!	!	!
8E-\L	5 3	1ryy	.	4e-\	.	12g/L	.	12b-/L	.	4E-\	ſo-	4e-\	ſo-	4g\	ſo-	4b-\	ſo-	4g\	.	4b-\	.	4b-\	.	4gg\	.	4gg\	.	4bb-\	.
.	.	.	.	.	.	12a-/	.	12cc/	.	.	.	.	.	.	.	.	.	.	.	.	.	.	.	.	.	.	.	.	.
8E-\	.	.	.	.	.	.	.	.	.	.	.	.	.	.	.	.	.	.	.	.	.	.	.	.	.	.	.	.	.
.	.	.	.	.	.	12g/J	.	12b-/J	.	.	.	.	.	.	.	.	.	.	.	.	.	.	.	.	.	.	.	.	.
!	!	!	!	!	!	!LO:TUP:b:problem:klamra łukowa	!	!LO:TUP:b:problem:klamra łukowa	!	!	!	!	!	!	!	!	!	!	!	!	!	!	!	!	!	!	!	!	!
8A-\	6 3	.	.	4c\	.	12f/L	.	12a-/L	.	4A-\	-l(us)	4c\	-lus	4f\	-lus	4a-\	-lus	4f\	.	4a-\	.	4a-\	.	4ff\	.	4ff\	.	4aa-\	.
.	.	.	.	.	.	12g/	.	12b-/	.	.	.	.	.	.	.	.	.	.	.	.	.	.	.	.	.	.	.	.	.
8A-\J	.	.	.	.	.	.	.	.	.	.	.	.	.	.	.	.	.	.	.	.	.	.	.	.	.	.	.	.	.
.	.	.	.	.	.	12f/J	.	12a-/J	.	.	.	.	.	.	.	.	.	.	.	.	.	.	.	.	.	.	.	.	.
!LO:TX:t=P:problem:mixed beam	!	!	!	!	!	!LO:TUP:b:problem:klamra łukowa	!	!LO:TUP:b:problem:klamra łukowa	!	!	!	!	!	!	!	!	!	!	!	!	!	!	!	!	!	!	!	!	!
8B-\L	6 4	.	.	4B-/	.	12e-/L	.	12g/L	.	4B-\	ſ(an)-	4B-\	ſ(an)-	4e-\	ſan-	4g\	ſan-	4e-\	.	4g\	.	4g\	.	4ee-\	.	4ee-\	.	4gg\	.
.	.	.	.	.	.	12f/	.	12a-/	.	.	.	.	.	.	.	.	.	.	.	.	.	.	.	.	.	.	.	.	.
8B-\	.	.	.	.	.	.	.	.	.	.	.	.	.	.	.	.	.	.	.	.	.	.	.	.	.	.	.	.	.
.	.	.	.	.	.	12e-/J	.	12g/J	.	.	.	.	.	.	.	.	.	.	.	.	.	.	.	.	.	.	.	.	.
!	!	!	!	!	!	!LO:TUP:b:problem:klamra łukowa	!	!LO:TUP:b:problem:klamra łukowa	!	!	!	!	!	!	!	!	!	!	!	!	!	!	!	!	!	!	!	!	!
8BB-/	7 5	.	.	4B-/	.	12d/L	.	12f/L	.	4BB-/	-ct(us)	4A-\	-ctus	4d\	-ct(us)	4f\	-ct(us)	4B-/	.	4f\	.	4f\	.	4dd\	.	4dd\	.	4ff\	.
.	.	.	.	.	.	12e-/	.	12g/	.	.	.	.	.	.	.	.	.	.	.	.	.	.	.	.	.	.	.	.	.
8BB-/J	.	.	.	.	.	.	.	.	.	.	.	.	.	.	.	.	.	.	.	.	.	.	.	.	.	.	.	.	.
.	.	.	.	.	.	12d/J	.	12f/J	.	.	.	.	.	.	.	.	.	.	.	.	.	.	.	.	.	.	.	.	.
=4	=4	=4	=4	=4	=4	=4	=4	=4	=4	=4	=4	=4	=4	=4	=4	=4	=4	=4	=4	=4	=4	=4	=4	=4	=4	=4	=4	=4	=4
*tremolo	*	*	*	*	*	*tremolo	*	*	*	*	*	*	*	*	*	*	*	*	*	*	*	*2\right	*	*2\right	*	*2\right	*	*	*
8E-\L	5_ 3_	1ryy	.	8e-\L	.	(16g/LL	.	8.g/L	.	2E-\	tu	2B-\	tu	2e-\	tu	2e-/	tu	2G/	.	2e-\	.	2b-\	.	2ee-\	.	2ee-\	.	2ee-\	.
.	.	.	.	.	.	16b-/	.	.	.	.	.	.	.	.	.	.	.	.	.	.	.	.	.	.	.	.	.	.	.
8E-\	.	.	.	8g\	.	16g/	.	.	.	.	.	.	.	.	.	.	.	.	.	.	.	.	.	.	.	.	.	.	.
.	.	.	.	.	.	16b-/	.	16e-/Jk	.	.	.	.	.	.	.	.	.	.	.	.	.	.	.	.	.	.	.	.	.
8E-\	.	.	.	8b-\	.	16g/	.	4e-T/	.	.	.	.	.	.	.	.	.	.	.	.	.	.	.	.	.	.	.	.	.
.	.	.	.	.	.	16b-/	.	.	.	.	.	.	.	.	.	.	.	.	.	.	.	.	.	.	.	.	.	.	.
8E-\J	.	.	.	8g\J	.	16g/	.	.	.	.	.	.	.	.	.	.	.	.	.	.	.	.	.	.	.	.	.	.	.
.	.	.	.	.	.	16b-/JJ)	.	.	.	.	.	.	.	.	.	.	.	.	.	.	.	.	.	.	.	.	.	.	.
!	!	!	!	!	!	!	!	!LO:TX:t=P:problem:mixed beam	!	!	!	!	!	!	!	!	!	!	!	!	!	!	!	!	!	!	!	!	!
8E-\L	.	.	.	8e-\L	.	(16g/LL	.	8.gg\L	.	4E-\	ſo-	4e-\	ſo-	4b-\	ſo-	4gg\	ſo-	4e-\	.	4g\	.	2ee-\	.	2gg\	.	2gg\	.	4gg\	.
.	.	.	.	.	.	16b-/	.	.	.	.	.	.	.	.	.	.	.	.	.	.	.	.	.	.	.	.	.	.	.
8E-\	.	.	.	8g\	.	16g/	.	.	.	.	.	.	.	.	.	.	.	.	.	.	.	.	.	.	.	.	.	.	.
.	.	.	.	.	.	16b-/	.	16e-/Jk	.	.	.	.	.	.	.	.	.	.	.	.	.	.	.	.	.	.	.	.	.
8E-\	.	.	.	8b-\	.	16g/	.	4e-T/	.	4E-\	-lus	4e-\	-lus	4b-\	-l(us)	4gg\	-lus	4e-\	.	4g\	.	.	.	.	.	.	.	4gg\	.
.	.	.	.	.	.	16b-/	.	.	.	.	.	.	.	.	.	.	.	.	.	.	.	.	.	.	.	.	.	.	.
8E-\J	.	.	.	8g\J	.	16g/	.	.	.	.	.	.	.	.	.	.	.	.	.	.	.	.	.	.	.	.	.	.	.
.	.	.	.	.	.	16b-/JJ)	.	.	.	.	.	.	.	.	.	.	.	.	.	.	.	.	.	.	.	.	.	.	.
*	*	*	*	*	*	*Xtremolo	*	*	*	*	*	*	*	*	*	*	*	*	*	*	*	*	*	*	*	*	*	*	*
!	!	!	!	!	!	!LO:LB:g=original	!	!LO:LB:g=original	!	!	!	!	!	!	!	!	!	!	!	!	!	!	!	!	!	!	!	!	!
=5	=5	=5	=5	=5	=5	=5	=5	=5	=5	=5	=5	=5	=5	=5	=5	=5	=5	=5	=5	=5	=5	=5	=5	=5	=5	=5	=5	=5	=5
8D\L	6_ 3_	1ryy	.	8d\L	.	8.b-/L	.	4d/	.	4.BB-/	Do-	4.f\	Do-	4.b-\	Do-	4.ff\	Do-	2B-/	.	2f\	.	2dd\	.	2ff\	.	2ff\	.	2ff\	.
8D\	.	.	.	8f\	.	.	.	.	.	.	.	.	.	.	.	.	.	.	.	.	.	.	.	.	.	.	.	.	.
.	.	.	.	.	.	16f/Jk	.	.	.	.	.	.	.	.	.	.	.	.	.	.	.	.	.	.	.	.	.	.	.
8D\	.	.	.	8b-\	.	4fT/	.	4f/	.	.	.	.	.	.	.	.	.	.	.	.	.	.	.	.	.	.	.	.	.
8D\J	.	.	.	8f\J	.	.	.	.	.	8d\	-mi-	8f\	-mi-	8b-\	-mi-	8ff\	-mi-	.	.	.	.	.	.	.	.	.	.	.	.
!	!	!	!	!LO:LB:g=original	!	!	!	!	!	!LO:LB:g=original	!	!	!	!	!	!	!	!	!	!	!	!	!	!	!	!	!	!	!
8D\L	.	.	.	8d\L	.	8.ff\L	.	4b-\	.	2d\	-n(us)	4f\	-n(us)	4b-\	-n(us)	4ff\	-n(us)	2B-/	.	2f\	.	2dd\	.	2ff\	.	2ff\	.	2ff\	.
8D\	.	.	.	8f\	.	.	.	.	.	.	.	.	.	.	.	.	.	.	.	.	.	.	.	.	.	.	.	.	.
.	.	.	.	.	.	16b-\Jk	.	.	.	.	.	.	.	.	.	.	.	.	.	.	.	.	.	.	.	.	.	.	.
8D\	.	.	.	8b-\	.	4b-T\	.	4dd\	.	.	.	4f\	tu	4b-\	tu	4ff\	tu	.	.	.	.	.	.	.	.	.	.	.	.
8D\J	.	.	.	8f\J	.	.	.	.	.	.	.	.	.	.	.	.	.	.	.	.	.	.	.	.	.	.	.	.	.
=6	=6	=6	=6	=6	=6	=6	=6	=6	=6	=6	=6	=6	=6	=6	=6	=6	=6	=6	=6	=6	=6	=6	=6	=6	=6	=6	=6	=6	=6
*	*	*	*	*	*	*	*	*	*	*	*	*	*	*	*	*	*	*2\right	*	*	*	*	*	*	*	*	*	*	*
8C/L	6\ 3	1ryy	.	8An\L	.	4an/	.	8.cc\L	.	2c\	ſo-	2f\	ſo-	2an\	ſo-	2ee-\	ſo-	2f\	.	2f\	.	2a\	.	1ee-	.	1ee-	.	2ff\	.
8C/	.	.	.	8c\	.	.	.	.	.	.	.	.	.	.	.	.	.	.	.	.	.	.	.	.	.	.	.	.	.
.	.	.	.	.	.	.	.	16ee-\Jk	.	.	.	.	.	.	.	.	.	.	.	.	.	.	.	.	.	.	.	.	.
8C/	.	.	.	8f\	.	4f/	.	4ee-T\	.	.	.	.	.	.	.	.	.	.	.	.	.	.	.	.	.	.	.	.	.
8C/J	.	.	.	8c\J	.	.	.	.	.	.	.	.	.	.	.	.	.	.	.	.	.	.	.	.	.	.	.	.	.
8An\L	6 5	.	.	8A\L	.	4a/	.	8.ccc\L	.	4An\	-lus	4f\	-l(us)	4a\	-lus	4ee-\	-lus	2f\	.	2f\	.	4cc\	.	.	.	.	.	2ff\	.
8A\	.	.	.	8c\	.	.	.	.	.	.	.	.	.	.	.	.	.	.	.	.	.	.	.	.	.	.	.	.	.
.	.	.	.	.	.	.	.	16ee-\Jk	.	.	.	.	.	.	.	.	.	.	.	.	.	.	.	.	.	.	.	.	.
8A\	.	.	.	8f\	.	4cc/	.	4ee-T\	.	4A\	al-	4f\	al-	4a\	al-	4ee-\	al-	.	.	.	.	4a\	.	.	.	.	.	.	.
8A\J	.	.	.	8c\J	.	.	.	.	.	.	.	.	.	.	.	.	.	.	.	.	.	.	.	.	.	.	.	.	.
=7	=7	=7	=7	=7	=7	=7	=7	=7	=7	=7	=7	=7	=7	=7	=7	=7	=7	=7	=7	=7	=7	=7	=7	=7	=7	=7	=7	=7	=7
!	!	!	!LO:DY:t=p&colon;:a=2	!	!	!	!	!	!	!	!	!	!	!	!	!	!	!	!	!	!	!	!	!	!	!	!	!	!
8B-\L	5_ 3_	1ryy	p	8B-\L	.	8.dd\L	.	4dd\	.	4.B-\	-ti-	4.f\	-ti-	4.b-\	-ti-	4.dd\	-ti-	2B-/	.	2f\	.	2b-\	.	2dd\	.	2dd\	.	2ff\	.
8B-\	.	.	.	8d\	.	.	.	.	.	.	.	.	.	.	.	.	.	.	.	.	.	.	.	.	.	.	.	.	.
.	.	.	.	.	.	16b-\Jk	.	.	.	.	.	.	.	.	.	.	.	.	.	.	.	.	.	.	.	.	.	.	.
8B-\	.	.	.	8f\	.	4b-T\	.	4ff\	.	.	.	.	.	.	.	.	.	.	.	.	.	.	.	.	.	.	.	.	.
8B-\J	.	.	.	8d\J	.	.	.	.	.	8B-\	-ſsi-	8f\	-ſsi-	8b-\	-ſsi-	8dd\	-ſsi-	.	.	.	.	.	.	.	.	.	.	.	.
!	!	!	!	!	!	!	!	!	!	!	!	!	!	!LO:LB:g=original	!	!	!	!	!	!	!	!	!	!	!	!	!	!	!
8B-\L	.	.	.	8B-\L	.	8.f/L	.	4dd\	.	2B-\	-mus	2f\	-mus	2b-\	-m(us)	2dd\	-m(us)	2B-/	.	2f\	.	2b-\	.	2dd\	.	2dd\	.	2ff\	.
8B-\	.	.	.	8d\	.	.	.	.	.	.	.	.	.	.	.	.	.	.	.	.	.	.	.	.	.	.	.	.	.
.	.	.	.	.	.	16b-/Jk	.	.	.	.	.	.	.	.	.	.	.	.	.	.	.	.	.	.	.	.	.	.	.
8B-\	.	.	.	8f\	.	4b-T\	.	4b-\	.	.	.	.	.	.	.	.	.	.	.	.	.	.	.	.	.	.	.	.	.
8B-\J	.	.	.	8d\J	.	.	.	.	.	.	.	.	.	.	.	.	.	.	.	.	.	.	.	.	.	.	.	.	.
!LO:LB:g=original	!	!	!	!	!	!	!	!	!	!	!	!LO:LB:g=original	!	!	!	!LO:LB:g=original	!	!	!	!	!	!	!	!	!	!	!	!	!
=8	=8	=8	=8	=8	=8	=8	=8	=8	=8	=8	=8	=8	=8	=8	=8	=8	=8	=8	=8	=8	=8	=8	=8	=8	=8	=8	=8	=8	=8
*	*	*	*	*2\right	*	*2\right	*	*	*	*	*	*	*	*	*	*	*	*	*	*	*	*	*	*	*	*	*	*	*
*	*	*	*	*tremolo	*	*tremolo	*	*	*	*	*	*	*	*	*	*	*	*	*	*	*	*	*	*	*	*	*	*	*
!	!	!	!	!	!	!	!	!LO:TX:t=P:problem:mixed beam	!	!	!	!	!	!	!	!	!	!	!	!	!	!	!	!	!	!	!	!	!
8D\L	6_ 3	1ryy	.	8f\L	.	16b-\LL	.	8.bb-\L	.	2D\	Je-	2B-\	Je-	2f\	Je-	2b-\	Je-	2B-/	.	2f\	.	1b-	.	1bb-	.	1bb-	.	2ff\	.
.	.	.	.	.	.	16b-\	.	.	.	.	.	.	.	.	.	.	.	.	.	.	.	.	.	.	.	.	.	.	.
8D\	.	.	.	8f\	.	16b-\	.	.	.	.	.	.	.	.	.	.	.	.	.	.	.	.	.	.	.	.	.	.	.
.	.	.	.	.	.	16b-\	.	16b-/Jk	.	.	.	.	.	.	.	.	.	.	.	.	.	.	.	.	.	.	.	.	.
8D\	.	.	.	8f\	.	16b-\	.	4b-T/	.	.	.	.	.	.	.	.	.	.	.	.	.	.	.	.	.	.	.	.	.
.	.	.	.	.	.	16b-\	.	.	.	.	.	.	.	.	.	.	.	.	.	.	.	.	.	.	.	.	.	.	.
8D\J	.	.	.	8f\J	.	16b-\	.	.	.	.	.	.	.	.	.	.	.	.	.	.	.	.	.	.	.	.	.	.	.
.	.	.	.	.	.	16b-\JJ	.	.	.	.	.	.	.	.	.	.	.	.	.	.	.	.	.	.	.	.	.	.	.
!	!	!	!	!	!	!	!	!LO:TX:t=P:problem:mixed beam	!	!	!	!	!	!	!	!	!	!	!	!	!	!	!	!	!	!	!	!LO:TX:b:i:t=Verte Cito	!
8E-\L	_ 3	.	.	8g\L	.	16b-\LL	.	8.bb-\L	.	2E-\	-su	2B-\	-su	2g\	-su	2b-\	-su	2r	.	2r	.	.	.	.	.	.	.	2r	.
.	.	.	.	.	.	16b-\	.	.	.	.	.	.	.	.	.	.	.	.	.	.	.	.	.	.	.	.	.	.	.
8E-\	.	.	.	8g\	.	16b-\	.	.	.	.	.	.	.	.	.	.	.	.	.	.	.	.	.	.	.	.	.	.	.
.	.	.	.	.	.	16b-\	.	16b-/Jk	.	.	.	.	.	.	.	.	.	.	.	.	.	.	.	.	.	.	.	.	.
8E-\	.	.	.	8g\	.	16b-\	.	4b-T/	.	.	.	.	.	.	.	.	.	.	.	.	.	.	.	.	.	.	.	.	.
.	.	.	.	.	.	16b-\	.	.	.	.	.	.	.	.	.	.	.	.	.	.	.	.	.	.	.	.	.	.	.
8E-\J	.	.	.	8g\J	.	16b-\	.	.	.	.	.	.	.	.	.	.	.	.	.	.	.	.	.	.	.	.	.	.	.
.	.	.	.	.	.	16b-\JJ	.	.	.	.	.	.	.	.	.	.	.	.	.	.	.	.	.	.	.	.	.	.	.
!	!	!	!	!	!	!	!	!	!	!	!	!	!	!	!	!	!	!	!	!	!	!	!	!	!	!	!	!LO:PB:g=original	!
=9	=9	=9	=9	=9	=9	=9	=9	=9	=9	=9	=9	=9	=9	=9	=9	=9	=9	=9	=9	=9	=9	=9	=9	=9	=9	=9	=9	=9	=9
*	*	*	*	*	*	*	*	*	*	*	*ij	*	*ij	*	*ij	*	*ij	*	*	*	*	*	*	*	*	*	*	*	*
!	!	!	!	!	!	!	!	!LO:TX:t=P:problem:mixed beam	!	!	!	!	!	!	!	!	!	!	!	!	!	!	!	!	!	!	!	!	!
8F\L	_ 4	1ryy	.	8F/L	.	16d/LL	.	8.bb-\L	.	2F\	Je-	2B-\	Je-	2d\	Je-	2b-\	Je-	2B-/	.	2f\	.	1b-	.	1bb-	.	1bb-	.	2ff\	.
.	.	.	.	.	.	16d/	.	.	.	.	.	.	.	.	.	.	.	.	.	.	.	.	.	.	.	.	.	.	.
8F\	.	.	.	8F/	.	16d/	.	.	.	.	.	.	.	.	.	.	.	.	.	.	.	.	.	.	.	.	.	.	.
.	.	.	.	.	.	16d/	.	16b-/Jk	.	.	.	.	.	.	.	.	.	.	.	.	.	.	.	.	.	.	.	.	.
8F\	.	.	.	8F/	.	16d/	.	4b-T/	.	.	.	.	.	.	.	.	.	.	.	.	.	.	.	.	.	.	.	.	.
.	.	.	.	.	.	16d/	.	.	.	.	.	.	.	.	.	.	.	.	.	.	.	.	.	.	.	.	.	.	.
8F\J	.	.	.	8F/J	.	16d/	.	.	.	.	.	.	.	.	.	.	.	.	.	.	.	.	.	.	.	.	.	.	.
.	.	.	.	.	.	16d/JJ	.	.	.	.	.	.	.	.	.	.	.	.	.	.	.	.	.	.	.	.	.	.	.
!	!	!	!	!	!	!	!	!LO:TX:t=P:problem:mixed beam	!	!	!	!	!	!	!	!	!	!	!	!	!	!	!	!	!	!	!	!	!
8G\L	_ 4	.	.	8G/L	.	16e-/LL	.	8.bb-\L	.	2G\	-su	2B-\	-su	2e-\	-su	2b-\	-su	2e-\	.	2g\	.	.	.	.	.	.	.	2gg\	.
*	*	*	*	*	*	*	*	*	*	*	*Xij	*	*Xij	*	*Xij	*	*Xij	*	*	*	*	*	*	*	*	*	*	*	*
.	.	.	.	.	.	16e-/	.	.	.	.	.	.	.	.	.	.	.	.	.	.	.	.	.	.	.	.	.	.	.
8G\	.	.	.	8G/	.	16e-/	.	.	.	.	.	.	.	.	.	.	.	.	.	.	.	.	.	.	.	.	.	.	.
.	.	.	.	.	.	16e-/	.	16b-/Jk	.	.	.	.	.	.	.	.	.	.	.	.	.	.	.	.	.	.	.	.	.
8G\	.	.	.	8G/	.	16e-/	.	4b-T/	.	.	.	.	.	.	.	.	.	.	.	.	.	.	.	.	.	.	.	.	.
.	.	.	.	.	.	16e-/	.	.	.	.	.	.	.	.	.	.	.	.	.	.	.	.	.	.	.	.	.	.	.
8G\J	.	.	.	8G/J	.	16e-/	.	.	.	.	.	.	.	.	.	.	.	.	.	.	.	.	.	.	.	.	.	.	.
.	.	.	.	.	.	16e-/JJ	.	.	.	.	.	.	.	.	.	.	.	.	.	.	.	.	.	.	.	.	.	.	.
!	!	!	!	!	!	!	!	!	!	!	!	!	!	!	!	!	!	!LO:LB:g=original	!	!LO:LB:g=original	!	!	!	!	!	!	!	!	!
=10	=10	=10	=10	=10	=10	=10	=10	=10	=10	=10	=10	=10	=10	=10	=10	=10	=10	=10	=10	=10	=10	=10	=10	=10	=10	=10	=10	=10	=10
!	!	!	!	!	!	!	!	!LO:TX:t=P:problem:mixed beam	!	!	!	!	!	!	!	!	!	!	!	!	!	!	!	!	!	!	!	!	!
8F\L	6 4	1ryy	.	8F/L	.	16d/LL	.	8.bb-\L	.	2F\	Chri-	2d\	Chri-	2d\	Chri-	2b-\	Chri-	2f\	.	2f\	.	1b-	.	1bb-	.	1bb-	.	2ff\	.
.	.	.	.	.	.	16d/	.	.	.	.	.	.	.	.	.	.	.	.	.	.	.	.	.	.	.	.	.	.	.
8F\	.	.	.	8F/	.	16d/	.	.	.	.	.	.	.	.	.	.	.	.	.	.	.	.	.	.	.	.	.	.	.
.	.	.	.	.	.	16d/	.	16b-/Jk	.	.	.	.	.	.	.	.	.	.	.	.	.	.	.	.	.	.	.	.	.
8F\	.	.	.	8F/	.	16d/	.	4b-T/	.	.	.	.	.	.	.	.	.	.	.	.	.	.	.	.	.	.	.	.	.
.	.	.	.	.	.	16d/	.	.	.	.	.	.	.	.	.	.	.	.	.	.	.	.	.	.	.	.	.	.	.
8F\J	.	.	.	8F/J	.	16d/	.	.	.	.	.	.	.	.	.	.	.	.	.	.	.	.	.	.	.	.	.	.	.
.	.	.	.	.	.	16d/JJ	.	.	.	.	.	.	.	.	.	.	.	.	.	.	.	.	.	.	.	.	.	.	.
!	!	!	!	!	!	!	!	!LO:TX:t=P:problem:mixed beam	!	!	!	!	!	!	!	!	!	!	!	!	!	!	!	!	!	!	!	!	!
8En\L	-7 5	.	.	8En/L	.	16d-X/LL	.	8.bb-\L	.	2En\	-ste	2d-X\	-ste	2d-X\	-ste	2b-\	-ste	2B-/	.	2f\	.	.	.	.	.	.	.	2ff\	.
.	.	.	.	.	.	16d-/	.	.	.	.	.	.	.	.	.	.	.	.	.	.	.	.	.	.	.	.	.	.	.
8E\	.	.	.	8E/	.	16d-/	.	.	.	.	.	.	.	.	.	.	.	.	.	.	.	.	.	.	.	.	.	.	.
.	.	.	.	.	.	16d-/	.	16b-/Jk	.	.	.	.	.	.	.	.	.	.	.	.	.	.	.	.	.	.	.	.	.
8E\	.	.	.	8E/	.	16d-/	.	4b-T/	.	.	.	.	.	.	.	.	.	.	.	.	.	.	.	.	.	.	.	.	.
.	.	.	.	.	.	16d-/	.	.	.	.	.	.	.	.	.	.	.	.	.	.	.	.	.	.	.	.	.	.	.
8E\J	.	.	.	8E/J	.	16d-/	.	.	.	.	.	.	.	.	.	.	.	.	.	.	.	.	.	.	.	.	.	.	.
.	.	.	.	.	.	16d-/JJ	.	.	.	.	.	.	.	.	.	.	.	.	.	.	.	.	.	.	.	.	.	.	.
!	!	!	!	!	!	!	!	!	!	!	!	!	!	!	!	!	!	!	!	!	!	!LO:LB:g=original	!	!	!	!	!	!	!
=11	=11	=11	=11	=11	=11	=11	=11	=11	=11	=11	=11	=11	=11	=11	=11	=11	=11	=11	=11	=11	=11	=11	=11	=11	=11	=11	=11	=11	=11
8E-X\L	6 2	1ryy	.	8c\L	.	16anLL 16f/	.	8.an\L	.	2E-X\	Cum	2c\	Cum	2f\	Cum	2an\	Cum	2f\	.	2f\	.	2a\	.	1ff	.	1ff	.	2ff\	.
.	.	.	.	.	.	16a 16f/	.	.	.	.	.	.	.	.	.	.	.	.	.	.	.	.	.	.	.	.	.	.	.
8E-\	.	.	.	8c\	.	16a 16f/	.	.	.	.	.	.	.	.	.	.	.	.	.	.	.	.	.	.	.	.	.	.	.
.	.	.	.	.	.	16a 16f/	.	16ff\Jk	.	.	.	.	.	.	.	.	.	.	.	.	.	.	.	.	.	.	.	.	.
8E-\	.	.	.	8c\	.	16a 16f/	.	4ffT\	.	.	.	.	.	.	.	.	.	.	.	.	.	.	.	.	.	.	.	.	.
.	.	.	.	.	.	16a 16f/	.	.	.	.	.	.	.	.	.	.	.	.	.	.	.	.	.	.	.	.	.	.	.
8E-\J	.	.	.	8c\J	.	16a 16f/	.	.	.	.	.	.	.	.	.	.	.	.	.	.	.	.	.	.	.	.	.	.	.
.	.	.	.	.	.	16aJJ 16f/	.	.	.	.	.	.	.	.	.	.	.	.	.	.	.	.	.	.	.	.	.	.	.
!	!	!	!	!	!	!	!	!LO:LB:g=original	!	!	!	!	!	!	!	!	!	!	!	!	!	!	!	!	!	!	!	!	!
!	!	!	!	!	!	!	!	!LO:TX:t=P:problem:mixed beam	!	!	!	!	!	!	!	!	!	!	!	!	!	!	!	!	!	!	!	!	!
8D\L	6 3	.	.	8B-\L	.	16b-LL 16f/	.	8.bb-\L	.	4D\	ſ(an)-	4B-\	ſan-	4f\	ſ(an)-	4b-\	ſ(an)-	2B-/	.	2f\	.	2b-\	.	.	.	.	.	2ff\	.
.	.	.	.	.	.	16b- 16f/	.	.	.	.	.	.	.	.	.	.	.	.	.	.	.	.	.	.	.	.	.	.	.
8D\	.	.	.	8B-\	.	16b- 16f/	.	.	.	.	.	.	.	.	.	.	.	.	.	.	.	.	.	.	.	.	.	.	.
.	.	.	.	.	.	16b- 16f/	.	16b-/Jk	.	.	.	.	.	.	.	.	.	.	.	.	.	.	.	.	.	.	.	.	.
8D\	.	.	.	8B-\	.	16b- 16f/	.	4b-T/	.	4D\	-cto	4B-\	-cto	4f\	-cto	4b-\	-cto	.	.	.	.	.	.	.	.	.	.	.	.
.	.	.	.	.	.	16b- 16f/	.	.	.	.	.	.	.	.	.	.	.	.	.	.	.	.	.	.	.	.	.	.	.
8D\J	.	.	.	8B-\J	.	16b- 16f/	.	.	.	.	.	.	.	.	.	.	.	.	.	.	.	.	.	.	.	.	.	.	.
.	.	.	.	.	.	16b-JJ 16f/	.	.	.	.	.	.	.	.	.	.	.	.	.	.	.	.	.	.	.	.	.	.	.
!	!	!	!	!	!	!LO:LB:g=original	!	!	!	!	!	!	!	!	!	!	!	!	!	!	!	!	!	!	!	!	!	!	!
=12	=12	=12	=12	=12	=12	=12	=12	=12	=12	=12	=12	=12	=12	=12	=12	=12	=12	=12	=12	=12	=12	=12	=12	=12	=12	=12	=12	=12	=12
!	!	!	!	!	!	!LO:SIC:v:n=1:s=16anLL	!	!	!	!	!	!	!	!	!	!	!	!	!	!	!	!	!	!	!	!	!	!	!
8E-\L	6 2	1ryy	.	8c\L	.	16a-LL 16f/	.	8.an\L	.	4.E-\	ſpi-	4.c\	ſpi-	4.f\	ſpi-	4.an\	ſpi-	2f\	.	2f\	.	2a\	.	1ff	.	1ff	.	4ff\	.
!	!	!	!	!	!	!LO:SIC:v:n=1:s=16an	!	!	!	!	!	!	!	!	!	!	!	!	!	!	!	!	!	!	!	!	!	!	!
.	.	.	.	.	.	16a- 16f/	.	.	.	.	.	.	.	.	.	.	.	.	.	.	.	.	.	.	.	.	.	.	.
!	!	!	!	!	!	!LO:SIC:v:n=1:s=16an	!	!	!	!	!	!	!	!	!	!	!	!	!	!	!	!	!	!	!	!	!	!	!
8E-\	.	.	.	8c\	.	16a- 16f/	.	.	.	.	.	.	.	.	.	.	.	.	.	.	.	.	.	.	.	.	.	.	.
!	!	!	!	!	!	!LO:SIC:v:n=1:s=16an	!	!	!	!	!	!	!	!	!	!	!	!	!	!	!	!	!	!	!	!	!	!	!
.	.	.	.	.	.	16a- 16f/	.	16ff\Jk	.	.	.	.	.	.	.	.	.	.	.	.	.	.	.	.	.	.	.	.	.
!	!	!	!	!	!	!LO:SIC:v:n=1:s=16an	!	!	!	!	!	!	!	!	!	!	!	!	!	!	!	!	!	!	!	!	!	!	!
8E-\	.	.	.	8c\	.	16a- 16f/	.	4ffT\	.	.	.	.	.	.	.	.	.	.	.	.	.	.	.	.	.	.	.	4ff\	.
!	!	!	!	!	!	!LO:SIC:v:n=1:s=16an	!	!	!	!	!	!	!	!	!	!	!	!	!	!	!	!	!	!	!	!	!	!	!
.	.	.	.	.	.	16a- 16f/	.	.	.	.	.	.	.	.	.	.	.	.	.	.	.	.	.	.	.	.	.	.	.
!	!	!	!	!	!	!LO:SIC:v:n=1:s=16an	!	!	!	!	!	!	!	!	!	!	!	!	!	!	!	!	!	!	!	!	!	!	!
8E-\J	.	.	.	8c\J	.	16a- 16f/	.	.	.	8E-\	-ri-	8c\	-ri-	8f\	-ri-	8a\	-ri-	.	.	.	.	.	.	.	.	.	.	.	.
!	!	!	!	!	!	!LO:SIC:v:n=1:s=16anJJ	!	!	!	!	!	!	!	!	!	!	!	!	!	!	!	!	!	!	!	!	!	!	!
.	.	.	.	.	.	16a-JJ 16f/	.	.	.	.	.	.	.	.	.	.	.	.	.	.	.	.	.	.	.	.	.	.	.
!	!	!	!	!	!	!	!	!LO:TX:t=P:problem:mixed beam	!	!	!	!	!	!	!	!	!	!	!	!	!	!	!	!	!	!	!	!	!
8D\L	6 3	.	.	8B-\L	.	16b-LL 16f/	.	8.bb-\L	.	4D\	-tu	4B-\	-tu	4f\	-tu	4b-\	-tu	2B-/	.	2f\	.	2b-\	.	.	.	.	.	4ff\	.
.	.	.	.	.	.	16b- 16f/	.	.	.	.	.	.	.	.	.	.	.	.	.	.	.	.	.	.	.	.	.	.	.
8D\	.	.	.	8B-\	.	16b- 16f/	.	.	.	.	.	.	.	.	.	.	.	.	.	.	.	.	.	.	.	.	.	.	.
.	.	.	.	.	.	16b- 16f/	.	16b-/Jk	.	.	.	.	.	.	.	.	.	.	.	.	.	.	.	.	.	.	.	.	.
8D\	.	.	.	8B-\	.	16b- 16f/	.	4b-T/	.	4D\	in	4B-\	in	4f\	in	4b-\	in	.	.	.	.	.	.	.	.	.	.	4ff\	.
.	.	.	.	.	.	16b- 16f/	.	.	.	.	.	.	.	.	.	.	.	.	.	.	.	.	.	.	.	.	.	.	.
8D\J	.	.	.	8B-\J	.	16b- 16f/	.	.	.	.	.	.	.	.	.	.	.	.	.	.	.	.	.	.	.	.	.	.	.
.	.	.	.	.	.	16b-JJ 16f/	.	.	.	.	.	.	.	.	.	.	.	.	.	.	.	.	.	.	.	.	.	.	.
!	!	!	!	!	!	!	!	!	!	!LO:PB:g=original	!	!	!	!	!	!	!	!	!	!	!	!	!	!	!	!LO:LB:g=original	!	!	!
=13	=13	=13	=13	=13	=13	=13	=13	=13	=13	=13	=13	=13	=13	=13	=13	=13	=13	=13	=13	=13	=13	=13	=13	=13	=13	=13	=13	=13	=13
8E-\L	5 3	1ryy	.	8e-\L	.	16b-\LL	.	8.bb-\L	.	4.E-\	glo-	4.e-\	glo-	2b-\	glo-	4.gg\	glo-	2e-\	.	2g\	.	1b-	.	2gg\	.	2gg\	.	4gg\	.
.	.	.	.	.	.	16b-\	.	.	.	.	.	.	.	.	.	.	.	.	.	.	.	.	.	.	.	.	.	.	.
8E-\	.	.	.	8e-\	.	16b-\	.	.	.	.	.	.	.	.	.	.	.	.	.	.	.	.	.	.	.	.	.	.	.
.	.	.	.	.	.	16b-\	.	16gg\Jk	.	.	.	.	.	.	.	.	.	.	.	.	.	.	.	.	.	.	.	.	.
8E-\	.	.	.	8e-\	.	16b-\	.	4ggt\	.	.	.	.	.	.	.	.	.	.	.	.	.	.	.	.	.	.	.	4gg\	.
.	.	.	.	.	.	16b-\	.	.	.	.	.	.	.	.	.	.	.	.	.	.	.	.	.	.	.	.	.	.	.
8E-\J	.	.	.	8e-\J	.	16b-\	.	.	.	8E-\	-ri-	8e-\	-ri-	.	.	8gg\	-ri-	.	.	.	.	.	.	.	.	.	.	.	.
.	.	.	.	.	.	16b-\JJ	.	.	.	.	.	.	.	.	.	.	.	.	.	.	.	.	.	.	.	.	.	.	.
8D\L	6 3	.	.	8d\L	.	16b-\LL	.	8.bb-\L	.	2D\	-a	2f\	-a	4b-\	-ri-	2ff\	-a	2B-/	.	2f\	.	.	.	2ff\	.	2ff\	.	4ff\	.
.	.	.	.	.	.	16b-\	.	.	.	.	.	.	.	.	.	.	.	.	.	.	.	.	.	.	.	.	.	.	.
8D\	.	.	.	8d\	.	16b-\	.	.	.	.	.	.	.	.	.	.	.	.	.	.	.	.	.	.	.	.	.	.	.
.	.	.	.	.	.	16b-\	.	16ff\Jk	.	.	.	.	.	.	.	.	.	.	.	.	.	.	.	.	.	.	.	.	.
8D\	.	.	.	8d\	.	16b-\	.	4ffT\	.	.	.	.	.	4b-\	-a	.	.	.	.	.	.	.	.	.	.	.	.	4ff\	.
.	.	.	.	.	.	16b-\	.	.	.	.	.	.	.	.	.	.	.	.	.	.	.	.	.	.	.	.	.	.	.
8D\J	.	.	.	8d\J	.	16b-\	.	.	.	.	.	.	.	.	.	.	.	.	.	.	.	.	.	.	.	.	.	.	.
.	.	.	.	.	.	16b-\JJ	.	.	.	.	.	.	.	.	.	.	.	.	.	.	.	.	.	.	.	.	.	.	.
!	!	!	!	!LO:LB:g=original	!	!	!	!	!	!	!	!	!	!	!	!	!	!	!	!	!	!	!	!	!	!	!	!	!
=14	=14	=14	=14	=14	=14	=14	=14	=14	=14	=14	=14	=14	=14	=14	=14	=14	=14	=14	=14	=14	=14	=14	=14	=14	=14	=14	=14	=14	=14
8C/L	6\ 3	1ryy	.	8f\L	.	16b-\LL	.	8.bb-\L	.	2C/	De-	2f\	De-	2an\	De-	2ee-\	De-	2f\	.	2f\	.	2a\	.	2ee-\	.	2ee-\	.	2ff\	.
.	.	.	.	.	.	16b-\	.	.	.	.	.	.	.	.	.	.	.	.	.	.	.	.	.	.	.	.	.	.	.
8C/	.	.	.	8f\	.	16b-\	.	.	.	.	.	.	.	.	.	.	.	.	.	.	.	.	.	.	.	.	.	.	.
.	.	.	.	.	.	16b-\	.	16ee-\Jk	.	.	.	.	.	.	.	.	.	.	.	.	.	.	.	.	.	.	.	.	.
8C/	.	.	.	8f\	.	16b-\	.	4ee-T\	.	.	.	.	.	.	.	.	.	.	.	.	.	.	.	.	.	.	.	.	.
.	.	.	.	.	.	16b-\	.	.	.	.	.	.	.	.	.	.	.	.	.	.	.	.	.	.	.	.	.	.	.
8C/J	.	.	.	8f\J	.	16b-\	.	.	.	.	.	.	.	.	.	.	.	.	.	.	.	.	.	.	.	.	.	.	.
.	.	.	.	.	.	16b-\JJ	.	.	.	.	.	.	.	.	.	.	.	.	.	.	.	.	.	.	.	.	.	.	.
8BB-/L	8 3	.	.	8e-\L	.	16b-\LL	.	8.bb-\L	.	2BB-/	-i	2d\	-i	2f\	-i	2dd\	-i	2B-/	.	2f\	.	2b-\	.	2dd\	.	2dd\	.	2ff\	.
.	.	.	.	.	.	16b-\	.	.	.	.	.	.	.	.	.	.	.	.	.	.	.	.	.	.	.	.	.	.	.
8BB-/	.	.	.	8e-\	.	16b-\	.	.	.	.	.	.	.	.	.	.	.	.	.	.	.	.	.	.	.	.	.	.	.
.	.	.	.	.	.	16b-\	.	16dd\Jk	.	.	.	.	.	.	.	.	.	.	.	.	.	.	.	.	.	.	.	.	.
8BB-/	.	.	.	8e-\	.	16b-\	.	4ddt\	.	.	.	.	.	.	.	.	.	.	.	.	.	.	.	.	.	.	.	.	.
.	.	.	.	.	.	16b-\	.	.	.	.	.	.	.	.	.	.	.	.	.	.	.	.	.	.	.	.	.	.	.
8BB-/J	.	.	.	8e-\J	.	16b-\	.	.	.	.	.	.	.	.	.	.	.	.	.	.	.	.	.	.	.	.	.	.	.
.	.	.	.	.	.	16b-\JJ	.	.	.	.	.	.	.	.	.	.	.	.	.	.	.	.	.	.	.	.	.	.	.
*	*	*	*	*	*	*Xtremolo	*	*	*	*	*	*	*	*	*	*	*	*	*	*	*	*	*	*	*	*	*	*	*
!	!	!	!	!	!	!	!	!	!	!	!	!	!	!	!	!	!	!	!	!	!	!	!	!LO:LB:g=original	!	!	!	!	!
=15	=15	=15	=15	=15	=15	=15	=15	=15	=15	=15	=15	=15	=15	=15	=15	=15	=15	=15	=15	=15	=15	=15	=15	=15	=15	=15	=15	=15	=15
8E-\L	6\ 3	1ryy	.	8g\L	.	4g/	.	8.bb-\L	.	4E-\	Pa-	4c\	Pa-	4g\	Pa-	4cc\	pa-	4e-\	.	4g\	.	4cc\	.	4cc\	.	4cc\	.	4gg\	.
8E-\	.	.	.	8g\	.	.	.	.	.	.	.	.	.	.	.	.	.	.	.	.	.	.	.	.	.	.	.	.	.
.	.	.	.	.	.	.	.	16cc\K	.	.	.	.	.	.	.	.	.	.	.	.	.	.	.	.	.	.	.	.	.
8E-\	.	.	.	8g\	.	8.cc\L	.	8.ee-\	.	4E-\	-tris	4c\	-tris	4g\	-tris	4ee-\	-tris	4e-\	.	4g\	.	4ee-\	.	4gg\	.	4gg\	.	4gg\	.
8E-\J	.	.	.	8g\J	.	.	.	.	.	.	.	.	.	.	.	.	.	.	.	.	.	.	.	.	.	.	.	.	.
.	.	.	.	.	.	16ee-\Jk	.	16gg\Jk	.	.	.	.	.	.	.	.	.	.	.	.	.	.	.	.	.	.	.	.	.
8F\L	6 4	.	.	8f\L	.	8.dd\L	.	8.ff\L	.	2F\	A-	(4B-\	A-	2f\	[A-	(4dd\	A-	2B-/	.	2f\	.	8.dd\L	.	(8ff\L	.	(8ff\L	.	2ff\	.
8F\	.	.	.	8f\	.	.	.	.	.	.	.	.	.	.	.	.	.	.	.	.	.	.	.	8ee-\	.	8ee-\	.	.	.
.	.	.	.	.	.	16cc\K	.	16ee-\K	.	.	.	.	.	.	.	.	.	.	.	.	.	16cc\K	.	.	.	.	.	.	.
8F\	5 n	.	.	8f\	.	8.b-\	.	8.dd\	.	.	.	4An\)	.	.	.	4cc\)	.	.	.	.	.	(8.b-\	.	8dd\	.	8dd\	.	.	.
8F\J	.	.	.	8f\J	.	.	.	.	.	.	.	.	.	.	.	.	.	.	.	.	.	.	.	8cc\J)	.	8cc\J)	.	.	.
!	!	!	!	!	!	!	!	!	!	!	!	!	!	!	!	!	!	!	!	!	!	!LO:SIC:v:s=16an\Jk)	!	!	!	!	!	!	!
.	.	.	.	.	.	16an\Jk	.	16cc\Jk	.	.	.	.	.	.	.	.	.	.	.	.	.	16a-\Jk)	.	.	.	.	.	.	.
*Xtremolo	*	*	*	*Xtremolo	*	*	*	*	*	*	*	*	*	*	*	*	*	*	*	*	*	*	*	*	*	*	*	*	*
!LO:LB:g=original	!	!	!	!	!	!	!	!	!	!	!	!	!	!	!	!	!	!	!	!	!	!	!	!	!	!	!	!	!
=16	=16	=16	=16	=16	=16	=16	=16	=16	=16	=16	=16	=16	=16	=16	=16	=16	=16	=16	=16	=16	=16	=16	=16	=16	=16	=16	=16	=16	=16
!LO:TX:t=P:problem:mixed beam	!	!	!	!	!	!	!	!	!	!	!	!	!	!	!	!	!	!	!	!	!	!	!	!	!	!	!	!	!
8BB-/L	5_ 3_	1ryy	.	4f\	.	4b-\	.	4b- 4d/	.	2BB-/	-men	2d\	-men	2f\	-men]	2b-\	-men	4B-/	.	4f\	.	4f/	.	4b-\	.	4b-\	.	4ff\	.
8B-\	.	.	.	.	.	.	.	.	.	.	.	.	.	.	.	.	.	.	.	.	.	.	.	.	.	.	.	.	.
8F\	.	.	.	4f\	.	4d 4B-/	.	4b- 4d/	.	.	.	.	.	.	.	.	.	4B-/	.	4f\	.	4d/	.	4b-\	.	4b-\	.	4ff\	.
8D\J	.	.	.	.	.	.	.	.	.	.	.	.	.	.	.	.	.	.	.	.	.	.	.	.	.	.	.	.	.
4BB-/	x	.	.	4f\	.	4d 4B-/	.	4b- 4d/	.	2r	.	2r	.	2r	.	2r	.	4B-/	.	4f\	.	4d/	.	4b-\	.	4b-\	.	4ff\	.
4r	.	.	.	4r	.	4r	.	4r	.	.	.	.	.	.	.	.	.	4r	.	4r	.	4r	.	4r	.	4r	.	4r	.
!	!	!	!	!	!	!	!	!LO:LB:g=original	!	!	!	!	!	!	!	!	!	!	!	!	!	!	!	!	!	!	!	!	!
=17	=17	=17	=17	=17	=17	=17	=17	=17	=17	=17	=17	=17	=17	=17	=17	=17	=17	=17	=17	=17	=17	=17	=17	=17	=17	=17	=17	=17	=17
*clefC1	*	*	*	*	*	*	*	*2\right	*	*	*	*	*	*	*	*	*	*	*	*	*	*	*	*	*	*	*	*	*
!	!	!	!	!	!	!LO:TX:a:t=5	!	!	!	!	!	!	!	!	!	!	!	!	!	!	!	!	!	!	!	!	!	!	!
!LO:TX:a:t=Fuga	!	!	!	!LO:TX:a:t=10	!	!LO:TX:a:t=Fuga	!	!	!	!LO:TX:a:t=15	!	!LO:TX:a:t=10	!	!LO:TX:a:t=5	!	!	!	!LO:TX:a:t=20	!	!LO:TX:a:t=20	!	!LO:TX:a:t=20	!	!LO:TX:a:t=20	!	!LO:TX:a:t=20	!	!LO:TX:a:t=20	!
2ee-\|	.	1ryy	.	00r	.	00r	.	2ee-\	.	00r	.	00r	.	00r	.	(2ee-\	A-	00r	.	00r	.	00r	.	00r	.	00r	.	00r	.
4dd\|	.	.	.	.	.	.	.	4dd\	.	.	.	.	.	.	.	4dd\)	.	.	.	.	.	.	.	.	.	.	.	.	.
!	!	!	!	!	!	!	!	!	!	!	!	!	!	!	!	!LO:LB:g=original	!	!	!	!	!	!	!	!	!	!	!	!	!
4dd\|	.	.	.	.	.	.	.	4dd\	.	.	.	.	.	.	.	4dd\	-men	.	.	.	.	.	.	.	.	.	.	.	.
=18	=18	=18	=18	=18	=18	=18	=18	=18	=18	=18	=18	=18	=18	=18	=18	=18	=18	=18	=18	=18	=18	=18	=18	=18	=18	=18	=18	=18	=18
2ccT\	.	1ryy	.	.	.	.	.	2cc\	.	.	.	.	.	.	.	2cc\	A-	.	.	.	.	.	.	.	.	.	.	.	.
2b-\|	.	.	.	.	.	.	.	2b-\	.	.	.	.	.	.	.	2b-\	-men	.	.	.	.	.	.	.	.	.	.	.	.
=19	=19	=19	=19	=19	=19	=19	=19	=19	=19	=19	=19	=19	=19	=19	=19	=19	=19	=19	=19	=19	=19	=19	=19	=19	=19	=19	=19	=19	=19
4a-\|	.	1ryy	.	.	.	.	.	4a-/	.	.	.	.	.	.	.	4a-\	A-	.	.	.	.	.	.	.	.	.	.	.	.
4f/|	.	.	.	.	.	.	.	4f/	.	.	.	.	.	.	.	4f\	.	.	.	.	.	.	.	.	.	.	.	.	.
4g/|	.	.	.	.	.	.	.	4g/	.	.	.	.	.	.	.	4g\	.	.	.	.	.	.	.	.	.	.	.	.	.
4e-/|	.	.	.	.	.	.	.	4e-/	.	.	.	.	.	.	.	4e-\	.	.	.	.	.	.	.	.	.	.	.	.	.
=20	=20	=20	=20	=20	=20	=20	=20	=20	=20	=20	=20	=20	=20	=20	=20	=20	=20	=20	=20	=20	=20	=20	=20	=20	=20	=20	=20	=20	=20
1fT	.	1ryy	.	.	.	.	.	1fT	.	.	.	.	.	.	.	1f	.	.	.	.	.	.	.	.	.	.	.	.	.
=21	=21	=21	=21	=21	=21	=21	=21	=21	=21	=21	=21	=21	=21	=21	=21	=21	=21	=21	=21	=21	=21	=21	=21	=21	=21	=21	=21	=21	=21
4e-/	.	1ryy	.	00r	.	1r	.	4e-/	.	00r	.	00r	.	1r	.	4e-/	-men	00r	.	00r	.	00r	.	00r	.	00r	.	00r	.
4f/	.	.	.	.	.	.	.	4f/	.	.	.	.	.	.	.	4f/	A-	.	.	.	.	.	.	.	.	.	.	.	.
4g/	.	.	.	.	.	.	.	4g/	.	.	.	.	.	.	.	4g/	.	.	.	.	.	.	.	.	.	.	.	.	.
4an/	.	.	.	.	.	.	.	4a-/	.	.	.	.	.	.	.	4an/	.	.	.	.	.	.	.	.	.	.	.	.	.
!	!	!	!	!	!	!	!	!	!	!	!	!	!	!LO:PB:g=original	!	!	!	!	!	!	!	!	!	!	!	!	!	!	!
=22	=22	=22	=22	=22	=22	=22	=22	=22	=22	=22	=22	=22	=22	=22	=22	=22	=22	=22	=22	=22	=22	=22	=22	=22	=22	=22	=22	=22	=22
*^	*	*	*	*	*	*	*	*	*	*	*	*	*	*	*	*	*	*	*	*	*	*	*	*	*	*	*	*	*
4r	2b-\	.	1ryy	.	.	.	2b-\	.	4b-\	.	.	.	.	.	(2b-\	A-	4b-\	-men	.	.	.	.	.	.	.	.	.	.	.	.
8dd/L	.	.	.	.	.	.	.	.	(8dd\L	.	.	.	.	.	.	.	8dd\L	A-	.	.	.	.	.	.	.	.	.	.	.	.
!LO:SIC:v:s=8een/J	!	!	!	!	!	!	!	!	!	!	!	!	!	!	!	!	!	!	!	!	!	!	!	!	!	!	!	!	!	!
8ee-/J	.	.	.	.	.	.	.	.	8een\J)	.	.	.	.	.	.	.	8een\J	.	.	.	.	.	.	.	.	.	.	.	.	.
4ff/	4an\	.	.	.	.	.	4an/	.	4ff\|	.	.	.	.	.	4an\)	.	4ff\	.	.	.	.	.	.	.	.	.	.	.	.	.
4ff/	4a\	.	.	.	.	.	4a/	.	4ff\|	.	.	.	.	.	4a\	-men	4ff\	-men	.	.	.	.	.	.	.	.	.	.	.	.
!LO:LB:g=original	!	!	!	!	!	!	!	!	!	!	!	!	!	!	!	!	!	!	!	!	!	!	!	!	!	!	!	!	!	!
=23	=23	=23	=23	=23	=23	=23	=23	=23	=23	=23	=23	=23	=23	=23	=23	=23	=23	=23	=23	=23	=23	=23	=23	=23	=23	=23	=23	=23	=23	=23
4ff/	2g\	.	1ryy	.	.	.	2g/	.	4ff\	.	.	.	.	.	2g\	A-	4ff\	A-	.	.	.	.	.	.	.	.	.	.	.	.
2ee-/	.	.	.	.	.	.	.	.	2ee-X\	.	.	.	.	.	.	.	2ee-\	.	.	.	.	.	.	.	.	.	.	.	.	.
.	2f\	.	.	.	.	.	2f/	.	.	.	.	.	.	.	2f\	-men	.	.	.	.	.	.	.	.	.	.	.	.	.	.
4dd/	.	.	.	.	.	.	.	.	4dd\	.	.	.	.	.	.	.	4dd\	.	.	.	.	.	.	.	.	.	.	.	.	.
!	!	!	!	!	!	!	!LO:LB:g=original	!	!	!	!	!	!	!	!	!	!	!	!	!	!	!	!	!	!	!	!	!	!	!
=24	=24	=24	=24	=24	=24	=24	=24	=24	=24	=24	=24	=24	=24	=24	=24	=24	=24	=24	=24	=24	=24	=24	=24	=24	=24	=24	=24	=24	=24	=24
2cc/	4e-\	.	1ryy	.	.	.	4e-/	.	2cc\	.	.	.	.	.	4e-\	A-	2cc\	.	.	.	.	.	.	.	.	.	.	.	.	.
.	4c\	.	.	.	.	.	4c/	.	.	.	.	.	.	.	4c\	.	.	.	.	.	.	.	.	.	.	.	.	.	.	.
4b-/	4d\	.	.	.	.	.	4d/	.	4b-\	.	.	.	.	.	(4d\	.	4b-\	-men	.	.	.	.	.	.	.	.	.	.	.	.
4ff/	4B-\	.	.	.	.	.	4B-/	.	4ff\	.	.	.	.	.	4B-\)	.	4ff\	A-	.	.	.	.	.	.	.	.	.	.	.	.
!	!	!	!	!	!	!	!	!	!LO:LB:g=original	!	!	!	!	!	!	!	!	!	!	!	!	!	!	!	!	!	!	!	!	!
=25	=25	=25	=25	=25	=25	=25	=25	=25	=25	=25	=25	=25	=25	=25	=25	=25	=25	=25	=25	=25	=25	=25	=25	=25	=25	=25	=25	=25	=25	=25
.	.	.	.	.	.	.	.	.	8qqff/	.	.	.	.	.	.	.	.	.	.	.	.	.	.	.	.	.	.	.	.	.
4ee-/	2c\	.	1ryy	.	0r	.	2c/	.	4ee-X\	.	00r	.	0r	.	2c/	.	4ee-\	.	00r	.	00r	.	00r	.	00r	.	00r	.	00r	.
8dd/L	.	.	.	.	.	.	.	.	(8dd\L	.	.	.	.	.	.	.	8dd\L	.	.	.	.	.	.	.	.	.	.	.	.	.
8ee-/J	.	.	.	.	.	.	.	.	8ee-\J)	.	.	.	.	.	.	.	8ee-\J	.	.	.	.	.	.	.	.	.	.	.	.	.
4ff/	2An\	.	.	.	.	.	2An/	.	4ff\	.	.	.	.	.	2An/	.	4ff\	.	.	.	.	.	.	.	.	.	.	.	.	.
4ee-X/	.	.	.	.	.	.	.	.	4ee-\	.	.	.	.	.	.	.	4ee-\	.	.	.	.	.	.	.	.	.	.	.	.	.
=26	=26	=26	=26	=26	=26	=26	=26	=26	=26	=26	=26	=26	=26	=26	=26	=26	=26	=26	=26	=26	=26	=26	=26	=26	=26	=26	=26	=26	=26	=26
4dd/	2B-\	.	1ryy	.	.	.	2.B-/	.	4dd\	.	.	.	.	.	2B-/	.	4dd\	.	.	.	.	.	.	.	.	.	.	.	.	.
4b-/	.	.	.	.	.	.	.	.	(4b-\	.	.	.	.	.	.	.	4b-\	.	.	.	.	.	.	.	.	.	.	.	.	.
!	!	!	!	!	!	!	!	!	!	!	!	!	!	!	!	!	!LO:LB:g=original	!	!	!	!	!	!	!	!	!	!	!	!	!
4cc/	2a-\	.	.	.	.	.	.	.	4cc\	.	.	.	.	.	2a-X\	-men	4cc\	-men	.	.	.	.	.	.	.	.	.	.	.	.
4dd/	.	.	.	.	.	.	4a-X/	.	4dd\)	.	.	.	.	.	.	.	4dd\	.	.	.	.	.	.	.	.	.	.	.	.	.
*v	*v	*	*	*	*	*	*	*	*	*	*	*	*	*	*	*	*	*	*	*	*	*	*	*	*	*	*	*	*	*
!	!	!	!	!	!	!	!	!	!	!	!	!LO:PB:g=original	!	!	!	!	!	!	!	!	!	!	!	!	!	!	!	!	!
=27	=27	=27	=27	=27	=27	=27	=27	=27	=27	=27	=27	=27	=27	=27	=27	=27	=27	=27	=27	=27	=27	=27	=27	=27	=27	=27	=27	=27	=27
*clefC4	*	*	*	*	*	*	*	*	*	*	*	*	*	*	*	*	*	*	*	*	*	*	*	*	*	*	*	*	*
!LO:TX:a:t=Tenor	!	!	!	!LO:SIC:v:s=2e-\	!	!	!	!	!	!	!	!	!	!	!	!	!	!	!	!	!	!	!	!	!	!	!	!	!
!	!	!	!	!LO:TX:a:t=es:color=grey	!	!	!	!	!	!	!	!	!	!	!	!	!	!	!	!	!	!	!	!	!	!	!	!	!
2e-\	5 3	1ryy	.	2f\	.	4r	.	4r	.	.	.	(2e-\	A-	4r	.	4r	.	.	.	.	.	.	.	.	.	.	.	.	.
.	.	.	.	.	.	4e-/	.	4g/	.	.	.	.	.	(4e-\	A-	4g\	A-	.	.	.	.	.	.	.	.	.	.	.	.
4d\	6_ 3_	.	.	4d\	.	4f/	.	4b-/	.	.	.	4d\)	.	4f\)	.	4b-\	.	.	.	.	.	.	.	.	.	.	.	.	.
4d\	.	.	.	4d\	.	4f/	.	8cc\L	.	.	.	4d\	-men	4f\	-men	8cc\L	.	.	.	.	.	.	.	.	.	.	.	.	.
.	.	.	.	.	.	.	.	8dd\J	.	.	.	.	.	.	.	8dd\J	.	.	.	.	.	.	.	.	.	.	.	.	.
=28	=28	=28	=28	=28	=28	=28	=28	=28	=28	=28	=28	=28	=28	=28	=28	=28	=28	=28	=28	=28	=28	=28	=28	=28	=28	=28	=28	=28	=28
2c\	3 5	1ryy	.	2c/	.	4g/	.	2ee-\	.	.	.	2c\	A-	4g\	A-	2ee-\	.	.	.	.	.	.	.	.	.	.	.	.	.
.	x 6	.	.	.	.	2a-/	.	.	.	.	.	.	.	2a-X\	.	.	.	.	.	.	.	.	.	.	.	.	.	.	.
2B-\	3 7	.	.	2B-/	.	.	.	2dd\	.	.	.	2B-\	.	.	.	2dd\	-men	.	.	.	.	.	.	.	.	.	.	.	.
.	x 6	.	.	.	.	4g/	.	.	.	.	.	.	.	4f\	.	.	.	.	.	.	.	.	.	.	.	.	.	.	.
=29	=29	=29	=29	=29	=29	=29	=29	=29	=29	=29	=29	=29	=29	=29	=29	=29	=29	=29	=29	=29	=29	=29	=29	=29	=29	=29	=29	=29	=29
*	*	*	*	*	*	*	*	*	*	*	*	*	*	*	*	*	*ij	*	*	*	*	*	*	*	*	*	*	*	*
!	!	!	!	!	!	!	!	!	!	!	!	!	!	!	!	!LO:SIC:v:s=2cc\	!	!	!	!	!	!	!	!	!	!	!	!	!
2A-X\	3 5	1ryy	.	2A-/	.	4e-/	.	2cc\	.	0r	.	2A-\	.	4e-\	.	2dd\	A-	00r	.	00r	.	00r	.	00r	.	00r	.	00r	.
.	x 6	.	.	.	.	4f/	.	.	.	.	.	.	.	4f\	.	.	.	.	.	.	.	.	.	.	.	.	.	.	.
!	!	!	!	!	!	!	!	!	!	!	!	!	!	!	!	!LO:SIC:v:s=2b-\	!	!	!	!	!	!	!	!	!	!	!	!	!
2G\	3 5	.	.	2G/	.	4d/	.	2b-\	.	.	.	2G\	.	4d\	.	2cc\	-men	.	.	.	.	.	.	.	.	.	.	.	.
*	*	*	*	*	*	*	*	*	*	*	*	*	*	*	*	*	*Xij	*	*	*	*	*	*	*	*	*	*	*	*
.	x 6	.	.	.	.	4e-/	.	.	.	.	.	.	.	4e-\	.	.	.	.	.	.	.	.	.	.	.	.	.	.	.
!LO:LB:g=original	!	!	!	!	!	!	!	!	!	!	!	!	!	!	!	!	!	!	!	!	!	!	!	!	!	!	!	!	!
=30	=30	=30	=30	=30	=30	=30	=30	=30	=30	=30	=30	=30	=30	=30	=30	=30	=30	=30	=30	=30	=30	=30	=30	=30	=30	=30	=30	=30	=30
2F/	7 5 3	1ryy	.	2F/	.	2e-/	.	4a-X/	.	.	.	2F/	-men	2e-\	.	4a-\	A-	.	.	.	.	.	.	.	.	.	.	.	.
.	.	.	.	.	.	.	.	8g/L	.	.	.	.	.	.	.	8g\L	.	.	.	.	.	.	.	.	.	.	.	.	.
.	.	.	.	.	.	.	.	8a-/J	.	.	.	.	.	.	.	8a-\J	.	.	.	.	.	.	.	.	.	.	.	.	.
2A-/	8 3	.	.	2B-/	.	4d/	.	4b-/	.	.	.	2B-\	A-	4d\	-men	4b-\	.	.	.	.	.	.	.	.	.	.	.	.	.
.	7	.	.	.	.	4f/	.	4a-/	.	.	.	.	.	4f\	A-	4a-\	.	.	.	.	.	.	.	.	.	.	.	.	.
=31	=31	=31	=31	=31	=31	=31	=31	=31	=31	=31	=31	=31	=31	=31	=31	=31	=31	=31	=31	=31	=31	=31	=31	=31	=31	=31	=31	=31	=31
!	!	!	!	!	!	!	!	!	!	!	!	!	!	!LO:TX:t=P:problem:takt nieczytelny - tylko główka nuty	!	!	!	!	!	!	!	!	!	!	!	!	!	!	!
!	!	!	!	!	!	!	!	!	!	!	!	!	!	!LO:N:xstem	!	!	!	!	!	!	!	!	!	!	!	!	!	!	!
2.e-\	3	1ryy	.	2.e-\	.	2.e-/	.	4g/	.	1r	.	2.e-\	.	2e-	.	4g\	.	.	.	.	.	.	.	.	.	.	.	.	.
.	1	.	.	.	.	.	.	8e-/L	.	.	.	.	.	.	.	8e-\L	.	.	.	.	.	.	.	.	.	.	.	.	.
.	2	.	.	.	.	.	.	8f/J	.	.	.	.	.	.	.	8f\J	.	.	.	.	.	.	.	.	.	.	.	.	.
.	3	.	.	.	.	.	.	4g/	.	.	.	.	.	2ryy	.	4g\	.	.	.	.	.	.	.	.	.	.	.	.	.
4c\	6 3	.	.	4c\	.	4e-/	.	4an/	.	.	.	4c\	.	.	.	4an\	.	.	.	.	.	.	.	.	.	.	.	.	.
!	!	!	!	!	!	!	!	!	!	!	!	!	!	!LO:LB:g=original	!	!	!	!	!	!	!	!	!	!	!	!	!	!	!
=32	=32	=32	=32	=32	=32	=32	=32	=32	=32	=32	=32	=32	=32	=32	=32	=32	=32	=32	=32	=32	=32	=32	=32	=32	=32	=32	=32	=32	=32
*clefF4	*	*	*	*	*	*	*	*	*	*	*	*	*	*	*	*	*	*	*	*	*	*	*	*	*	*	*	*	*
!	!	!	!	!	!	!	!	!	!	!	!	!	!	!	!	!LO:N:vis=4.	!	!	!	!	!	!	!	!	!	!	!	!	!
2B-\	5 3	1ryy	.	2.f\	.	4d/	.	4b-\	.	(2B-\	A-	2.f\	.	4d\	.	4b-\	-men	.	.	.	.	.	.	.	.	.	.	.	.
.	.	.	.	.	.	4f/	.	(8dd\L	.	.	.	.	.	4f\	.	8dd\L	A-	.	.	.	.	.	.	.	.	.	.	.	.
.	.	.	.	.	.	.	.	8een\J)	.	.	.	.	.	.	.	8een\J	.	.	.	.	.	.	.	.	.	.	.	.	.
*	*	*	*	*	*	*	*	*custos:ff	*	*	*	*	*	*	*	*	*	*	*	*	*	*	*	*	*	*	*	*	*
!	!	!	!	!	!	!	!	!LO:LB:g=original	!	!	!	!	!	!	!	!	!	!	!	!	!	!	!	!	!	!	!	!	!
4An\	6_ 3_	.	.	.	.	2cc\	.	4ff\	.	4An\)	.	.	.	2cc\	.	4ff\	.	.	.	.	.	.	.	.	.	.	.	.	.
4A\	.	.	.	4f\	.	.	.	4ff\	.	4A\	-men	4f\	-men	.	.	4ff\	-men	.	.	.	.	.	.	.	.	.	.	.	.
!	!	!	!	!LO:LB:g=original	!	!LO:LB:g=original	!	!	!	!	!	!	!	!	!	!	!	!	!	!	!	!	!	!	!	!	!	!	!
=33	=33	=33	=33	=33	=33	=33	=33	=33	=33	=33	=33	=33	=33	=33	=33	=33	=33	=33	=33	=33	=33	=33	=33	=33	=33	=33	=33	=33	=33
2G\	6 3	1ryy	.	4B-\	.	2b-\	.	4ff\	.	2G\	A-	(4A-\	A-	(2b-\	.	4ff\	A-	00r	.	00r	.	00r	.	00r	.	00r	.	00r	.
.	.	.	.	4e-\	.	.	.	2ee-X\	.	.	.	4e-\	.	.	.	2ee-X\	.	.	.	.	.	.	.	.	.	.	.	.	.
2F\	6 3	.	.	4f\	.	[2an\	.	.	.	2F\	-men	4f\)	.	2an\)	.	.	.	.	.	.	.	.	.	.	.	.	.	.	.
.	.	.	.	4d\	.	.	.	4dd\	.	.	.	4d\	.	.	.	4dd\	.	.	.	.	.	.	.	.	.	.	.	.	.
=34	=34	=34	=34	=34	=34	=34	=34	=34	=34	=34	=34	=34	=34	=34	=34	=34	=34	=34	=34	=34	=34	=34	=34	=34	=34	=34	=34	=34	=34
4E-\	6_ n4_ 2_	1ryy	.	2c\	.	4a\]	.	4cc\	.	(4E-\	A-	2c\	.	2f\	.	4cc\	.	.	.	.	.	.	.	.	.	.	.	.	.
4C\	.	.	.	.	.	4f/	.	4an\	.	4C\)	.	.	.	.	.	4an\	.	.	.	.	.	.	.	.	.	.	.	.	.
!	!	!	!	!	!	!	!	!	!	!	!	!	!	!	!	!LO:LB:g=original	!	!	!	!	!	!	!	!	!	!	!	!	!
4D\	6_ 3_	.	.	2B-\	.	4f/	.	4b-\	.	4D\	.	2B-\	.	4f\	-men	4b-\	.	.	.	.	.	.	.	.	.	.	.	.	.
4B-\	.	.	.	.	.	4f/	.	4ff\	.	4B-\	.	.	.	4f\	A-	4ff\	.	.	.	.	.	.	.	.	.	.	.	.	.
=35	=35	=35	=35	=35	=35	=35	=35	=35	=35	=35	=35	=35	=35	=35	=35	=35	=35	=35	=35	=35	=35	=35	=35	=35	=35	=35	=35	=35	=35
2c\	3	1ryy	.	2e-\	.	2b-\	.	4ee-\	.	2c\	.	2e-\	-men	(2g\	.	4ee-\	.	.	.	.	.	.	.	.	.	.	.	.	.
.	2	.	.	.	.	.	.	(8dd\L	.	.	.	.	.	.	.	8dd\L	.	.	.	.	.	.	.	.	.	.	.	.	.
.	3	.	.	.	.	.	.	8ee-\J)	.	.	.	.	.	.	.	8ee-\J	.	.	.	.	.	.	.	.	.	.	.	.	.
2An\	6	.	.	2c\	.	2cc\	.	4ff\	.	2An\	.	2c\	A-	2f\)	.	4ff\	.	.	.	.	.	.	.	.	.	.	.	.	.
.	5	.	.	.	.	.	.	4ee-\	.	.	.	.	.	.	.	4ee-\	.	.	.	.	.	.	.	.	.	.	.	.	.
!	!	!	!	!	!	!	!	!	!	!LO:LB:g=original	!	!	!	!	!	!	!	!	!	!	!	!	!	!	!	!	!	!	!
=36	=36	=36	=36	=36	=36	=36	=36	=36	=36	=36	=36	=36	=36	=36	=36	=36	=36	=36	=36	=36	=36	=36	=36	=36	=36	=36	=36	=36	=36
2.B-\	3	1ryy	.	1B-	.	4f/	.	4dd\	.	2.B-\	-men	4f\	.	2.f\	.	4dd\	.	.	.	.	.	.	.	.	.	.	.	.	.
.	1	.	.	.	.	4d/	.	4b-\	.	.	.	4d\	.	.	.	4b-\	.	.	.	.	.	.	.	.	.	.	.	.	.
.	2	.	.	.	.	4e-/	.	(4cc\	.	.	.	4e-\	.	.	.	4cc\	-men	.	.	.	.	.	.	.	.	.	.	.	.
!	!	!	!	!	!	!	!	!	!	!	!	!	!	!LO:SIC:v:s=4f\	!	!	!	!	!	!LO:TX:b:i:t=Verte Cito	!	!	!	!	!	!	!	!	!
4A-X\	6 4	.	.	.	.	4f/	.	4dd\)	.	4A-X\	A-	4f\	.	4g-X\	.	4dd\	.	.	.	.	.	.	.	.	.	.	.	.	.
!	!	!	!	!	!	!	!	!	!	!	!	!LO:LB:g=original	!	!	!	!	!	!	!	!LO:PB:g=original	!	!	!	!	!	!	!	!	!
=37	=37	=37	=37	=37	=37	=37	=37	=37	=37	=37	=37	=37	=37	=37	=37	=37	=37	=37	=37	=37	=37	=37	=37	=37	=37	=37	=37	=37	=37
!	!	!	!	!	!	!	!	!	!	!	!	!	!	!	!	!	!	!	!	!	!	!	!	!	!	!	!	!LO:SIC:v:s=2ee-\	!
8F\L	3_ 5_	1ryy	.	2B-\	.	2g/	.	2ee-\	.	(4E-\	.	2B-\	.	2g\	.	2ee-\	A-	2G/	.	2e-\	.	2g/	.	2ee-\	.	2ee-\	.	2ff\	.
8F\	.	.	.	.	.	.	.	.	.	.	.	.	.	.	.	.	.	.	.	.	.	.	.	.	.	.	.	.	.
8G\	.	.	.	.	.	.	.	.	.	4G\)	.	.	.	.	.	.	.	.	.	.	.	.	.	.	.	.	.	.	.
8A-\J	.	.	.	.	.	.	.	.	.	.	.	.	.	.	.	.	.	.	.	.	.	.	.	.	.	.	.	.	.
8B-\L	5_ 3_	.	.	4d\	.	4f/	.	4dd\	.	2B-\	.	4d\	.	2f\	-men	4dd\	.	4B-/	.	4f\	.	4f/	.	4dd\	.	4dd\	.	4ff\	.
8c\	.	.	.	.	.	.	.	.	.	.	.	.	.	.	.	.	.	.	.	.	.	.	.	.	.	.	.	.	.
8d\	.	.	.	4f\	.	4dd\	.	4bb-\	.	.	.	4f\	.	.	.	4b-\	.	4B-/	.	4f\	.	4f/	.	4b-\	.	4b-\	.	4ff\	.
8B-\J	.	.	.	.	.	.	.	.	.	.	.	.	.	.	.	.	.	.	.	.	.	.	.	.	.	.	.	.	.
!LO:LB:g=original	!	!	!	!	!	!	!	!	!	!	!	!	!	!	!	!	!	!	!	!	!	!	!	!	!	!	!	!	!
=38	=38	=38	=38	=38	=38	=38	=38	=38	=38	=38	=38	=38	=38	=38	=38	=38	=38	=38	=38	=38	=38	=38	=38	=38	=38	=38	=38	=38	=38
8A-\L	5_ 3_	1ryy	.	2e-\	.	4bb-\	.	2ccc\	.	8A-\L	.	2e-\	-men	2.a-X\	A-	2cc\	.	2E-/	.	2e-\	.	2a-/	.	2cc\	.	2cc\	.	2ee-\	.
8B-\	.	.	.	.	.	.	.	.	.	8B-\	.	.	.	.	.	.	.	.	.	.	.	.	.	.	.	.	.	.	.
8c\	.	.	.	.	.	2aa-\	.	.	.	8c\	.	.	.	.	.	.	.	.	.	.	.	.	.	.	.	.	.	.	.
8d\J	.	.	.	.	.	.	.	.	.	8d\J	.	.	.	.	.	.	.	.	.	.	.	.	.	.	.	.	.	.	.
8e-\L	5_ 3_	.	.	2e-\	.	.	.	2bb-\	.	8e-\L	.	2e-\	A-	.	.	2b-\	.	2G/	.	2e-\	.	2g/	.	2b-\	.	2b-\	.	2ee-\	.
8B-\	.	.	.	.	.	.	.	.	.	8B-\	.	.	.	.	.	.	.	.	.	.	.	.	.	.	.	.	.	.	.
8G\	.	.	.	.	.	4gg\	.	.	.	8G\	.	.	.	4g\	.	.	.	.	.	.	.	.	.	.	.	.	.	.	.
8E-\J	.	.	.	.	.	.	.	.	.	8E-\J	.	.	.	.	.	.	.	.	.	.	.	.	.	.	.	.	.	.	.
!	!	!	!	!	!	!	!	!	!	!	!	!	!	!	!	!	!	!LO:LB:g=original	!	!	!	!	!	!	!	!	!	!LO:LB:g=original	!
=39	=39	=39	=39	=39	=39	=39	=39	=39	=39	=39	=39	=39	=39	=39	=39	=39	=39	=39	=39	=39	=39	=39	=39	=39	=39	=39	=39	=39	=39
4.F\	5_ 3_	1ryy	.	4.f\	.	(2cc\	.	4aa-\	.	4.F\	.	2d\	.	1f	.	4a-\	.	2E-/	.	2e-\	.	4ff\	.	2aa-\	.	2aa-\	.	2ee-\	.
.	.	.	.	.	.	.	.	(8gg\L	.	.	.	.	.	.	.	8g\L	.	.	.	.	.	4ee-\	.	.	.	.	.	.	.
8E-\	.	.	.	8e-\	.	.	.	8aa-\J)	.	8E-\	.	.	.	.	.	8a-\J	.	.	.	.	.	.	.	.	.	.	.	.	.
8D/L	6 3	.	.	(8d\L	.	4ff\)	.	4bb-\	.	8D/L	.	2B-X\	-men	.	.	4b-\	.	2B-/	.	2f\	.	2dd\	.	4bb-\	.	4bb-\	.	2ff\	.
8BB-/	.	.	.	8B-\	.	.	.	.	.	8BB-/	.	.	.	.	.	.	.	.	.	.	.	.	.	.	.	.	.	.	.
8C/	6 5	.	.	8c\	.	4ff'\	.	4aa-\	.	8C/	.	.	.	.	.	4a-\	.	.	.	.	.	.	.	4aa-\	.	4aa-\	.	.	.
8D/J	.	.	.	8d\J)	.	.	.	.	.	8D/J	.	.	.	.	.	.	.	.	.	.	.	.	.	.	.	.	.	.	.
!	!	!	!	!	!	!	!	!LO:LB:g=original	!	!	!	!	!	!	!	!	!	!	!	!	!	!LO:LB:g=original	!	!	!	!	!	!	!
=40	=40	=40	=40	=40	=40	=40	=40	=40	=40	=40	=40	=40	=40	=40	=40	=40	=40	=40	=40	=40	=40	=40	=40	=40	=40	=40	=40	=40	=40
4.E-\	5_ 3_	1ryy	.	4.e-\	.	(2b-\	.	4gg\	.	4.E-/	.	2B-\	A-	1e-	.	4g\	.	2e-\	.	2g\	.	4ee-\	.	2gg\	.	2gg\	.	2gg\	.
.	.	.	.	.	.	.	.	(8ff\L	.	.	.	.	.	.	.	8f\L	.	.	.	.	.	4dd\	.	.	.	.	.	.	.
8D\	.	.	.	8d\	.	.	.	8gg\J)	.	8D/	.	.	.	.	.	8g\J	.	.	.	.	.	.	.	.	.	.	.	.	.
8C/L	6_ 3_	.	.	(8c\L	.	4ee-\)	.	4aa-\	.	8C/L	.	2A-X\	.	.	.	4a-\	.	2e-\	.	2a-\	.	2cc\	.	4aa-\	.	4aa-\	.	2aa-\	.
8AA-/	.	.	.	8A-\	.	.	.	.	.	8AA-/	.	.	.	.	.	.	.	.	.	.	.	.	.	.	.	.	.	.	.
8BB-/	X	.	.	8B-\	.	4ee-\|	.	4gg\	.	8BB-/	.	.	.	.	.	4g\	.	.	.	.	.	.	.	4gg\	.	4gg\	.	.	.
8C/J	6 3	.	.	8c\J)	.	.	.	.	.	8C/J	.	.	.	.	.	.	.	.	.	.	.	.	.	.	.	.	.	.	.
=41	=41	=41	=41	=41	=41	=41	=41	=41	=41	=41	=41	=41	=41	=41	=41	=41	=41	=41	=41	=41	=41	=41	=41	=41	=41	=41	=41	=41	=41
4.D/	5_ 3_	1ryy	.	4.d\	.	(2a-X\	.	4ff\	.	4.D/	.	2A-/	.	1d	.	2f/	.	2f\	.	2a-\	.	4dd\	.	2ff\	.	2ff\	.	2aa-\	.
.	.	.	.	.	.	.	.	(8ee-\L	.	.	.	.	.	.	.	.	.	.	.	.	.	4cc\	.	.	.	.	.	.	.
8C/	.	.	.	8c\	.	.	.	8ff\J)	.	8C/	.	.	.	.	.	.	.	.	.	.	.	.	.	.	.	.	.	.	.
8BBn/L	6_ 3_	.	.	8Bn/L	.	4dd\)	.	4gg\	.	4BBn/	-men	2G/	.	.	.	4g/	.	2B-/	.	2g\	.	2bX\	.	(4gg\	.	4gg\	.	2gg\	.
8GG/	.	.	.	8G/	.	.	.	.	.	.	.	.	.	.	.	.	.	.	.	.	.	.	.	.	.	.	.	.	.
8AA-/	x	.	.	8A-/	.	4dd\|	.	4ff\	.	4G\	A-	.	.	.	.	4f/	.	.	.	.	.	.	.	4ff\)	.	4ff\	.	.	.
8BB/J	6 5	.	.	8B/J	.	.	.	.	.	.	.	.	.	.	.	.	.	.	.	.	.	.	.	.	.	.	.	.	.
!	!	!	!	!LO:LB:g=original	!	!LO:LB:g=original	!	!	!	!	!	!	!	!	!	!	!	!	!	!	!	!	!	!	!	!LO:LB:g=original	!	!	!
=42	=42	=42	=42	=42	=42	=42	=42	=42	=42	=42	=42	=42	=42	=42	=42	=42	=42	=42	=42	=42	=42	=42	=42	=42	=42	=42	=42	=42	=42
4C/	5_ 3_	1ryy	.	4C/	.	2g/	.	2ee-\	.	4C/	.	2G/	.	2c\	-men	4e-/	-men	2G/	.	2e-\	.	2cc\	.	2ee-\	.	2ee-\	.	2ee-\	.
4c\	.	.	.	4c\	.	.	.	.	.	4c\	.	.	.	.	.	4ee-\	A-	.	.	.	.	.	.	.	.	.	.	.	.
4Bn\	6_ 3_	.	.	4g\|	.	4dd\	.	4gg'\	.	4Bn\	.	2d\	.	2dd\	A-	[2gg\	.	4G/	.	4g\	.	4dd\	.	4gg\	.	4gg\	.	4gg\	.
4B\	.	.	.	4g\|	.	4dd\	.	4gg'\	.	4B\	-men	.	.	.	.	.	.	4G/	.	4g\	.	4dd\	.	4gg\	.	4gg\	.	4gg\	.
!LO:LB:g=original	!	!	!	!	!	!	!	!	!	!	!	!	!	!	!	!LO:LB:g=original	!	!	!	!	!	!	!	!	!	!	!	!	!
=43	=43	=43	=43	=43	=43	=43	=43	=43	=43	=43	=43	=43	=43	=43	=43	=43	=43	=43	=43	=43	=43	=43	=43	=43	=43	=43	=43	=43	=43
!	!	!	!	!	!	!	!	!	!	!	!	!	!	!	!	!LO:TX:a:t=P:problem:brak zakończenia ligatury	!	!LO:TX:a:t=3	!	!LO:TX:a:t=3	!	!	!	!	!	!	!	!LO:TX:a:t=3	!
2A-X\	7	1ryy	.	2f\	.	2cc\	.	4gg\	.	2A-X\	A-	4c\	.	2cc\	.	4gg\]	.	0r	.	0r	.	2cc\	.	2ff\	.	2ff\	.	0r	.
.	6 3	.	.	.	.	.	.	2ff\	.	.	.	4f\	.	.	.	2ff\	.	.	.	.	.	.	.	.	.	.	.	.	.
2G\	7	.	.	2e-\	.	2b-X\	.	.	.	2G\	.	4B-\	.	2b-\	.	.	.	.	.	.	.	2b-X\	.	2ee-\	.	2ee-\	.	.	.
.	6 3	.	.	.	.	.	.	4ee-\	.	.	.	4e-\	.	.	.	4ee-\	.	.	.	.	.	.	.	.	.	.	.	.	.
!	!	!	!	!	!	!	!	!	!	!LO:LB:g=original	!	!	!	!LO:LB:g=original	!	!	!	!	!	!	!	!	!	!	!	!	!	!	!
=44	=44	=44	=44	=44	=44	=44	=44	=44	=44	=44	=44	=44	=44	=44	=44	=44	=44	=44	=44	=44	=44	=44	=44	=44	=44	=44	=44	=44	=44
2F\	6 n4	1ryy	.	4d\	.	4a-X/	.	8dd\L	.	2.F\	.	2.d\	.	2.a-X\	.	2.dd\	.	.	.	.	.	2bX\	.	2aa-X\	.	2aa-X\	.	.	.
.	.	.	.	.	.	.	.	8aa-X\J	.	.	.	.	.	.	.	.	.	.	.	.	.	.	.	.	.	.	.	.	.
.	.	.	.	2d\	.	2bn\	.	2aa-\	.	.	.	.	.	.	.	.	.	.	.	.	.	.	.	.	.	.	.	.	.
2E-\	6 3	.	.	.	.	.	.	.	.	.	.	.	.	.	.	.	.	.	.	.	.	2cc\	.	2gg\	.	2gg\	.	.	.
.	.	.	.	4c\	.	4cc\	.	4gg\	.	4E-\	.	4c\	-men	4g\	.	4cc\	.	.	.	.	.	.	.	.	.	.	.	.	.
=45	=45	=45	=45	=45	=45	=45	=45	=45	=45	=45	=45	=45	=45	=45	=45	=45	=45	=45	=45	=45	=45	=45	=45	=45	=45	=45	=45	=45	=45
2D\	5 3	1ryy	.	2a-X\	.	2a-/	.	4ff\	.	2D\	-men	2d\	A-	2a-\	-men	2ff\	.	1r	.	1r	.	2a-X\	.	2ff\	.	2ff\	.	1r	.
.	.	.	.	.	.	.	.	8ee-\L	.	.	.	.	.	.	.	.	.	.	.	.	.	.	.	.	.	.	.	.	.
.	.	.	.	.	.	.	.	8ff\J	.	.	.	.	.	.	.	.	.	.	.	.	.	.	.	.	.	.	.	.	.
8Bn\L	6_ 3_	.	.	4g\	.	4dd\	.	4gg\	.	8Bn\L	A-	2d\	-men	2g\	A-	4gg\	.	.	.	.	.	2g\	.	4gg\	.	4gg\	.	.	.
8G\	.	.	.	.	.	.	.	.	.	8G\	.	.	.	.	.	.	.	.	.	.	.	.	.	.	.	.	.	.	.
8An\	x	.	.	4g\	.	4dd\	.	4ff\	.	8An\	.	.	.	.	.	4ff\	.	.	.	.	.	.	.	4ff\	.	4ff\	.	.	.
8B\J	.	.	.	.	.	.	.	.	.	8B\J	.	.	.	.	.	.	.	.	.	.	.	.	.	.	.	.	.	.	.
!	!	!	!	!	!	!	!	!	!	!	!	!	!	!	!	!	!	!	!	!	!	!	!	!LO:LB:g=original	!	!	!	!	!
=46	=46	=46	=46	=46	=46	=46	=46	=46	=46	=46	=46	=46	=46	=46	=46	=46	=46	=46	=46	=46	=46	=46	=46	=46	=46	=46	=46	=46	=46
4.c\	5_ 3_	1ryy	.	4.c/	.	2g/	.	(8ee-\L	.	4.c\	.	2e-\	A-	2g\	.	2ee-\	.	2G/	.	2e-\	.	2g\	.	2ee-\	.	2ee-\	.	2ee-\	.
.	.	.	.	.	.	.	.	8cc\	.	.	.	.	.	.	.	.	.	.	.	.	.	.	.	.	.	.	.	.	.
.	.	.	.	.	.	.	.	8dd\	.	.	.	.	.	.	.	.	.	.	.	.	.	.	.	.	.	.	.	.	.
8B-\	.	.	.	8B-/	.	.	.	8ee-\J)	.	8B-X\	.	.	.	.	.	.	.	.	.	.	.	.	.	.	.	.	.	.	.
8A-X\L	6_ 3_	.	.	8A-/L	.	8cc\L	.	4.ff\	.	8A-X\L	.	2c\	.	2f\	.	4ff\	.	2G/	.	2f\	.	2cc\	.	(4ff\	.	4ff\	.	2ff\	.
8F\	.	.	.	8F/	.	8a-\	.	.	.	8F\	.	.	.	.	.	.	.	.	.	.	.	.	.	.	.	.	.	.	.
8G\	.	.	.	8G/	.	8b-\	.	.	.	8G\	.	.	.	.	.	4ee-\	.	.	.	.	.	.	.	4ee-\)	.	4ee-\	.	.	.
8A-\J	.	.	.	8A-/J	.	8cc\J	.	8ee-\	.	8A-\J	.	.	.	.	.	.	.	.	.	.	.	.	.	.	.	.	.	.	.
!	!	!	!	!	!	!	!	!LO:LB:g=original	!	!	!	!	!	!	!	!	!	!	!	!	!	!	!	!	!	!	!	!	!
=47	=47	=47	=47	=47	=47	=47	=47	=47	=47	=47	=47	=47	=47	=47	=47	=47	=47	=47	=47	=47	=47	=47	=47	=47	=47	=47	=47	=47	=47
4.B-\	5_ 3_	1ryy	.	4.B-/	.	2f/	.	8dd\L	.	4.B-\	.	2d\	.	2f\	.	2dd\	.	2B-/	.	2f\	.	2f/	.	2dd\	.	2dd\	.	2ff\	.
.	.	.	.	.	.	.	.	8b-\	.	.	.	.	.	.	.	.	.	.	.	.	.	.	.	.	.	.	.	.	.
.	.	.	.	.	.	.	.	8cc\	.	.	.	.	.	.	.	.	.	.	.	.	.	.	.	.	.	.	.	.	.
8A-\	.	.	.	8A-/	.	.	.	8dd\J	.	8A-\	.	.	.	.	.	.	.	.	.	.	.	.	.	.	.	.	.	.	.
8G\L	6_ 3_	.	.	8G/L	.	4b-\	.	4ee-\	.	8G\L	.	2B-\	.	2g\	.	4ee-\	-men	2G/	.	2e-\	.	2b-\	.	2ee-\	.	2ee-\	.	2ee-\	.
8B-\	.	.	.	8B-/	.	.	.	.	.	8B-\	.	.	.	.	.	.	.	.	.	.	.	.	.	.	.	.	.	.	.
8G\	.	.	.	8G/	.	4b-\	.	4bb-\	.	8G\	.	.	.	.	.	4b-\	A-	.	.	.	.	.	.	.	.	.	.	.	.
8E-\J	.	.	.	8E-/J	.	.	.	.	.	8E-\J	.	.	.	.	.	.	.	.	.	.	.	.	.	.	.	.	.	.	.
!LO:LB:g=original	!	!	!	!	!	!	!	!	!	!	!	!LO:LB:g=original	!	!	!	!	!	!	!	!	!	!	!	!	!	!	!	!	!
=48	=48	=48	=48	=48	=48	=48	=48	=48	=48	=48	=48	=48	=48	=48	=48	=48	=48	=48	=48	=48	=48	=48	=48	=48	=48	=48	=48	=48	=48
*	*	*	*	*	*	*tremolo	*	*	*	*	*	*	*	*	*	*	*	*	*	*	*	*	*	*	*	*	*	*	*
8A-\L	x	1ryy	.	4e-\	.	16cc\LL	.	16bb-\LL	.	4A-\	.	4e-\	.	4b-\	.	2cc\	.	2a-\	.	2cc\	.	2cc\	.	4bb-\	.	4bb-\	.	2ccc\	.
.	9	.	.	.	.	16cc\	.	16bb-\	.	.	.	.	.	.	.	.	.	.	.	.	.	.	.	.	.	.	.	.	.
8A-\	.	.	.	.	.	16cc\	.	16bb-\	.	.	.	.	.	.	.	.	.	.	.	.	.	.	.	.	.	.	.	.	.
.	.	.	.	.	.	16cc\	.	16bb-\JJ	.	.	.	.	.	.	.	.	.	.	.	.	.	.	.	.	.	.	.	.	.
*	*	*	*	*	*	*	*	*tremolo	*	*	*	*	*	*	*	*	*	*	*	*	*	*	*	*	*	*	*	*	*
8F\	8	.	.	4f\	.	16cc\	.	16aa-\LL	.	4F\	.	4f\	.	2a-\	.	.	.	.	.	.	.	.	.	2aa-\	.	2aa-\	.	.	.
.	.	.	.	.	.	16cc\	.	16aa-\	.	.	.	.	.	.	.	.	.	.	.	.	.	.	.	.	.	.	.	.	.
8F\J	8	.	.	.	.	16cc\	.	16aa-\	.	.	.	.	.	.	.	.	.	.	.	.	.	.	.	.	.	.	.	.	.
.	.	.	.	.	.	16cc\JJ	.	16aa-\JJ	.	.	.	.	.	.	.	.	.	.	.	.	.	.	.	.	.	.	.	.	.
8G\L	.	.	.	4d\	.	16b-\LL	.	16aa-\LL	.	4G\	.	4d\	.	.	.	2b-\	.	2g\	.	2b-\	.	2b-\	.	.	.	.	.	2bb-\	.
.	9	.	.	.	.	16b-\	.	16aa-\	.	.	.	.	.	.	.	.	.	.	.	.	.	.	.	.	.	.	.	.	.
8G\	.	.	.	.	.	16b-\	.	16aa-\	.	.	.	.	.	.	.	.	.	.	.	.	.	.	.	.	.	.	.	.	.
.	.	.	.	.	.	16b-\	.	16aa-\JJ	.	.	.	.	.	.	.	.	.	.	.	.	.	.	.	.	.	.	.	.	.
8E-\	3	.	.	4e-\	.	16b-\	.	16gg\LL	.	4E-\	.	4e-\	.	4g\	.	.	.	.	.	.	.	.	.	[4gg\	.	[4gg\	.	.	.
.	.	.	.	.	.	16b-\	.	16gg\	.	.	.	.	.	.	.	.	.	.	.	.	.	.	.	.	.	.	.	.	.
8E-\J	8	.	.	.	.	16b-\	.	16gg\	.	.	.	.	.	.	.	.	.	.	.	.	.	.	.	.	.	.	.	.	.
.	.	.	.	.	.	16b-\JJ	.	16gg\JJ	.	.	.	.	.	.	.	.	.	.	.	.	.	.	.	.	.	.	.	.	.
=49	=49	=49	=49	=49	=49	=49	=49	=49	=49	=49	=49	=49	=49	=49	=49	=49	=49	=49	=49	=49	=49	=49	=49	=49	=49	=49	=49	=49	=49
8F\L	.	1ryy	.	4c\	.	16a-/LL	.	16gg\LL	.	4F\	.	4c\	.	4g\	.	2a-\	.	2f\	.	2a-\	.	2a-\	.	4gg\]	.	4gg\]	.	2aa-\	.
.	9	.	.	.	.	16a-/	.	16gg\	.	.	.	.	.	.	.	.	.	.	.	.	.	.	.	.	.	.	.	.	.
8F\	.	.	.	.	.	16a-/	.	16gg\	.	.	.	.	.	.	.	.	.	.	.	.	.	.	.	.	.	.	.	.	.
.	.	.	.	.	.	16a-/	.	16gg\JJ	.	.	.	.	.	.	.	.	.	.	.	.	.	.	.	.	.	.	.	.	.
8D\	3	.	.	4d\	.	16a-/	.	16ff\LL	.	4D\	.	4d\	.	2f\	.	.	.	.	.	.	.	.	.	2ff\	.	2ff\	.	.	.
.	.	.	.	.	.	16a-/	.	16ff\	.	.	.	.	.	.	.	.	.	.	.	.	.	.	.	.	.	.	.	.	.
8D\J	8	.	.	.	.	16a-/	.	16ff\	.	.	.	.	.	.	.	.	.	.	.	.	.	.	.	.	.	.	.	.	.
.	.	.	.	.	.	16a-/JJ	.	16ff\	.	.	.	.	.	.	.	.	.	.	.	.	.	.	.	.	.	.	.	.	.
!	!	!	!	!LO:LB:g=original	!	!	!	!	!	!	!	!	!	!	!	!	!	!	!	!	!	!	!	!	!	!	!	!	!
8E-\L	.	.	.	4B-\	.	16g/LL	.	16ff\	.	2E-\	-men	4B-\	.	.	.	2g\	-men	2e-\	.	2g\	.	2g\	.	.	.	.	.	2gg\	.
.	9	.	.	.	.	16g/	.	16ff\	.	.	.	.	.	.	.	.	.	.	.	.	.	.	.	.	.	.	.	.	.
8E-\	.	.	.	.	.	16g/	.	16ff\	.	.	.	.	.	.	.	.	.	.	.	.	.	.	.	.	.	.	.	.	.
.	.	.	.	.	.	16g/	.	16ff\JJ	.	.	.	.	.	.	.	.	.	.	.	.	.	.	.	.	.	.	.	.	.
8G\	3	.	.	4e-\	.	16g/	.	16ee-\LL	.	.	.	4e-\	.	4e-\	.	.	.	.	.	.	.	.	.	4ee-\	.	4ee-\	.	.	.
.	.	.	.	.	.	16g/	.	16ee-\	.	.	.	.	.	.	.	.	.	.	.	.	.	.	.	.	.	.	.	.	.
8G\J	8	.	.	.	.	16g/	.	16ee-\	.	.	.	.	.	.	.	.	.	.	.	.	.	.	.	.	.	.	.	.	.
.	.	.	.	.	.	16g/JJ	.	16ee-\JJ	.	.	.	.	.	.	.	.	.	.	.	.	.	.	.	.	.	.	.	.	.
!	!	!	!	!	!	!LO:LB:g=original	!	!	!	!	!	!	!	!	!	!	!	!	!	!	!	!	!	!	!	!	!	!	!
=50	=50	=50	=50	=50	=50	=50	=50	=50	=50	=50	=50	=50	=50	=50	=50	=50	=50	=50	=50	=50	=50	=50	=50	=50	=50	=50	=50	=50	=50
*	*	*	*	*tremolo	*	*	*	*	*	*	*	*	*	*	*	*	*	*	*	*	*	*	*	*	*	*	*	*	*
!	!	!	!	!	!	!	!	!	!	!	!	!	!	!LO:N:vis=2	!	!	!	!LO:TX:a:t=1	!	!LO:TX:a:t=1	!	!	!	!	!	!	!	!LO:TX:a:t=1	!
8An\L	6 5	1ryy	.	8c\L	.	16g-X/LL	.	16ee-\LL	.	2.An\	A-	2.c\	.	2.g-X\	.	2.ee-\	A-	1r	.	1r	.	1a	.	1ee-	.	1ee-	.	1r	.
.	.	.	.	.	.	16g-/	.	16ee-\	.	.	.	.	.	.	.	.	.	.	.	.	.	.	.	.	.	.	.	.	.
8A\	.	.	.	8c\	.	16g-/	.	16ee-\	.	.	.	.	.	.	.	.	.	.	.	.	.	.	.	.	.	.	.	.	.
.	.	.	.	.	.	16g-/	.	16ee-\	.	.	.	.	.	.	.	.	.	.	.	.	.	.	.	.	.	.	.	.	.
8A\	.	.	.	8c\	.	16g-/	.	16ee-\	.	.	.	.	.	.	.	.	.	.	.	.	.	.	.	.	.	.	.	.	.
.	.	.	.	.	.	16g-/	.	16ee-\	.	.	.	.	.	.	.	.	.	.	.	.	.	.	.	.	.	.	.	.	.
8A\J	.	.	.	8c\J	.	16g-/	.	16ee-\	.	.	.	.	.	.	.	.	.	.	.	.	.	.	.	.	.	.	.	.	.
.	.	.	.	.	.	16g-/JJ	.	16ee-\JJ	.	.	.	.	.	.	.	.	.	.	.	.	.	.	.	.	.	.	.	.	.
8A\L	6 5	.	.	8c\L	.	16g-/LL	.	16ee-\LL	.	.	.	.	.	.	.	.	.	.	.	.	.	.	.	.	.	.	.	.	.
.	.	.	.	.	.	16g-/	.	16ee-\	.	.	.	.	.	.	.	.	.	.	.	.	.	.	.	.	.	.	.	.	.
8A\	.	.	.	8c\	.	16g-/	.	16ee-\	.	.	.	.	.	.	.	.	.	.	.	.	.	.	.	.	.	.	.	.	.
.	.	.	.	.	.	16g-/	.	16ee-\	.	.	.	.	.	.	.	.	.	.	.	.	.	.	.	.	.	.	.	.	.
8A\	.	.	.	8c\	.	16g-/	.	16ee-\	.	4A\	-men	4c\	-men	4g-\	-men	4ee-\	-men	.	.	.	.	.	.	.	.	.	.	.	.
.	.	.	.	.	.	16g-/	.	16ee-\	.	.	.	.	.	.	.	.	.	.	.	.	.	.	.	.	.	.	.	.	.
8A\J	.	.	.	8c\J	.	16g-/	.	16ee-\	.	.	.	.	.	.	.	.	.	.	.	.	.	.	.	.	.	.	.	.	.
.	.	.	.	.	.	16g-/JJ	.	16ee-\JJ	.	.	.	.	.	.	.	.	.	.	.	.	.	.	.	.	.	.	.	.	.
*	*	*	*	*Xtremolo	*	*Xtremolo	*	*Xtremolo	*	*	*	*	*	*	*	*	*	*	*	*	*	*	*	*	*	*	*	*	*
!	!	!	!	!	!	!	!	!	!	!	!	!	!	!	!	!	!	!	!	!LO:LB:g=original	!	!LO:LB:g=original	!	!	!	!	!	!	!
=51	=51	=51	=51	=51	=51	=51	=51	=51	=51	=51	=51	=51	=51	=51	=51	=51	=51	=51	=51	=51	=51	=51	=51	=51	=51	=51	=51	=51	=51
!	!	!	!	!	!	!	!	!	!	!	!	!	!	!	!	!	!	!	!	!	!	!LO:TX:t=P:problem:skreślony takt	!	!	!	!	!	!	!
4B-\	5_ 3_	1ryy	.	4B-/	.	4f/	.	4b-\	.	(4B-\	A-	(4d\	A-	(4f\	A-	(4dd\	A-	4B-/	.	4f\	.	4b-\	.	4dd\	.	4dd\	.	4ff\	.
4BB-/	.	.	.	4B-/	.	4d/	.	4b-\	.	4BB-/)	.	4B-\)	.	4d\)	.	4b-\)	.	4B-/	.	4f\	.	4b-\	.	4dd\	.	4dd\	.	4ff\	.
4BB-/	.	.	.	4B-/	.	4d/	.	4b-\	.	4BB-/	-men	4B-\	-men	4d\	-men	4b-\	-men	4B-/	.	4f\	.	4b-\	.	4dd\	.	4dd\	.	4ff\	.
!	!	!	!	!	!	!	!	!	!	!	!	!	!	!	!	!	!	!LO:TX:t=P:problem:brak pauzy 4r	!	!	!	!	!	!	!LO:DY:a:t=pi	!	!	!	!
4r	x	.	.	4r	.	4r	.	4r	.	4r	.	4r	.	4r	.	4r	.	4ryy	.	4r	.	4r	.	4r	p	4r	.	4r	.
!LO:LB:g=original	!	!	!	!	!	!	!	!	!	!	!	!	!	!	!	!	!	!	!	!	!	!	!	!	!	!	!	!	!
=52	=52	=52	=52	=52	=52	=52	=52	=52	=52	=52	=52	=52	=52	=52	=52	=52	=52	=52	=52	=52	=52	=52	=52	=52	=52	=52	=52	=52	=52
*clefC1	*	*clefC1	*	*	*	*	*	*	*	*	*	*	*	*	*	*	*	*	*	*	*	*	*	*	*	*	*	*	*
*tremolo	*	*	*	*	*	*	*	*	*	*	*	*	*	*	*	*	*	*	*	*	*	*	*	*	*	*	*	*	*
!LO:TX:t=P:problem:mixed beam	!	!	!	!	!	!	!LO:DY:a:t=pio	!	!LO:DY:a:t=pio	!	!	!	!	!	!	!LO:TX:a:t=1.	!	!	!	!	!LO:DY:a:t=pi	!	!LO:DY:a:t=pi	!	!	!	!LO:DY:rj	!	!LO:DY:a:t=pi:rj
8a-L 8f\	.	4r	.	1B-	.	1d	p	1f	p	1r	.	1r	.	1r	.	1r	.	1B-	.	1f	p	1dd	p	1ff	.	1ff	p	1ff	p
8B-/	.	.	.	.	.	.	.	.	.	.	.	.	.	.	.	.	.	.	.	.	.	.	.	.	.	.	.	.	.
8a- 8f\	.	(8b-\L	.	.	.	.	.	.	.	.	.	.	.	.	.	.	.	.	.	.	.	.	.	.	.	.	.	.	.
8B-/J	.	8cc\J)	.	.	.	.	.	.	.	.	.	.	.	.	.	.	.	.	.	.	.	.	.	.	.	.	.	.	.
!LO:TX:t=P:problem:mixed beam	!	!	!	!	!	!	!	!	!	!	!	!	!	!	!	!	!	!	!	!	!	!	!	!	!	!	!	!	!
8a-L 8f\	.	(8dd\L	.	.	.	.	.	.	.	.	.	.	.	.	.	.	.	.	.	.	.	.	.	.	.	.	.	.	.
8B-/	.	8ee-\	.	.	.	.	.	.	.	.	.	.	.	.	.	.	.	.	.	.	.	.	.	.	.	.	.	.	.
8a- 8f\	.	8ff\	.	.	.	.	.	.	.	.	.	.	.	.	.	.	.	.	.	.	.	.	.	.	.	.	.	.	.
8B-/J	.	8dd\J)	.	.	.	.	.	.	.	.	.	.	.	.	.	.	.	.	.	.	.	.	.	.	.	.	.	.	.
!	!	!	!	!	!	!	!	!	!	!LO:LB:g=original	!	!	!	!	!	!	!	!LO:LB:g=original	!	!	!	!	!	!	!	!	!	!	!
=53	=53	=53	=53	=53	=53	=53	=53	=53	=53	=53	=53	=53	=53	=53	=53	=53	=53	=53	=53	=53	=53	=53	=53	=53	=53	=53	=53	=53	=53
!LO:TX:t=P:problem:mixed beam	!	!	!	!	!	!	!	!	!	!	!	!	!	!	!	!	!	!	!	!	!	!	!	!	!	!	!	!	!
8b-L 8g\	.	4.ee-\	.	1B-	.	1e-	.	1g	.	2E-\	A-	2B-\	A-	2g\	A-	(4.ee-\	A-	1G	.	1e-	.	1ee-	.	1gg	.	1gg	.	1ee-	.
8B-/	.	.	.	.	.	.	.	.	.	.	.	.	.	.	.	.	.	.	.	.	.	.	.	.	.	.	.	.	.
8b- 8g\	.	.	.	.	.	.	.	.	.	.	.	.	.	.	.	.	.	.	.	.	.	.	.	.	.	.	.	.	.
8B-/J	.	8gg\	.	.	.	.	.	.	.	.	.	.	.	.	.	8b-\)	.	.	.	.	.	.	.	.	.	.	.	.	.
!LO:TX:t=P:problem:mixed beam	!	!	!	!	!	!	!	!	!	!	!	!	!	!	!	!	!	!	!	!	!	!	!	!	!	!	!	!	!
8b-L 8g\	.	4bb-\	.	.	.	.	.	.	.	2E-\	-men	2B-\	-men	2g\	-men	2b-\	-men	.	.	.	.	.	.	.	.	.	.	.	.
8B-/	.	.	.	.	.	.	.	.	.	.	.	.	.	.	.	.	.	.	.	.	.	.	.	.	.	.	.	.	.
8b- 8g\	.	4r	.	.	.	.	.	.	.	.	.	.	.	.	.	.	.	.	.	.	.	.	.	.	.	.	.	.	.
8B-/J	.	.	.	.	.	.	.	.	.	.	.	.	.	.	.	.	.	.	.	.	.	.	.	.	.	.	.	.	.
!	!	!	!	!	!	!	!	!	!	!	!	!	!	!	!	!LO:LB:g=original	!	!	!	!	!	!	!	!	!	!LO:LB:g=original	!	!LO:LB:g=original	!
=54	=54	=54	=54	=54	=54	=54	=54	=54	=54	=54	=54	=54	=54	=54	=54	=54	=54	=54	=54	=54	=54	=54	=54	=54	=54	=54	=54	=54	=54
!LO:TX:t=P:problem:mixed beam	!	!	!	!	!	!	!	!	!	!	!	!	!	!	!	!LO:TX:a:t=1.	!	!	!	!	!	!	!	!	!	!	!	!	!
8a-L 8f\	.	4r	.	1B-	.	1d	.	1f	.	1r	.	1r	.	1r	.	1r	.	4r	.	4r	.	4r	.	4r	.	4r	.	4r	.
8B-/	.	.	.	.	.	.	.	.	.	.	.	.	.	.	.	.	.	.	.	.	.	.	.	.	.	.	.	.	.
8a- 8f\	.	(8b-\L	.	.	.	.	.	.	.	.	.	.	.	.	.	.	.	4B-/	.	4f\	.	4dd\	.	4ff\	.	4ff\	.	4ff\	.
8B-/J	.	8cc\J)	.	.	.	.	.	.	.	.	.	.	.	.	.	.	.	.	.	.	.	.	.	.	.	.	.	.	.
!LO:TX:t=P:problem:mixed beam	!	!	!	!	!	!	!	!	!	!	!	!	!	!	!	!	!	!	!	!	!	!	!	!	!	!	!	!	!
8a-L 8f\	.	(8dd\L	.	.	.	.	.	.	.	.	.	.	.	.	.	.	.	4B-/	.	4f\	.	4dd\	.	4ff\	.	4ff\	.	4ff\	.
8B-/	.	8ee-\	.	.	.	.	.	.	.	.	.	.	.	.	.	.	.	.	.	.	.	.	.	.	.	.	.	.	.
8a- 8f\	.	8ff\	.	.	.	.	.	.	.	.	.	.	.	.	.	.	.	4B-/	.	4f\	.	4dd\	.	4ff\	.	4ff\	.	4ff\	.
8B-/J	.	8dd\J)	.	.	.	.	.	.	.	.	.	.	.	.	.	.	.	.	.	.	.	.	.	.	.	.	.	.	.
!	!	!	!	!	!	!	!	!	!	!	!	!	!	!LO:LB:g=original	!	!	!	!	!	!	!	!	!	!	!	!	!	!	!
=55	=55	=55	=55	=55	=55	=55	=55	=55	=55	=55	=55	=55	=55	=55	=55	=55	=55	=55	=55	=55	=55	=55	=55	=55	=55	=55	=55	=55	=55
*	*	*	*	*	*	*	*	*	*	*	*ij	*	*ij	*	*	*	*	*	*	*	*	*	*	*	*	*	*	*	*
!LO:TX:t=P:problem:mixed beam	!	!	!	!	!	!	!	!	!	!	!	!	!	!	!	!	!	!	!	!	!	!	!	!	!	!	!	!	!
8gL 8e-\	.	4.ee-\	.	1B-	.	1e-	.	1g	.	2E-\	A-	2B-\	A-	2g\	A-	(4.ee-\	A-	4r	.	4r	.	4r	.	4r	.	4r	.	4r	.
8B-/	.	.	.	.	.	.	.	.	.	.	.	.	.	.	.	.	.	.	.	.	.	.	.	.	.	.	.	.	.
!	!	!	!	!	!	!	!	!	!	!	!	!	!	!	!	!	!	!LO:SIC:v:s=4G/	!	!	!	!	!	!	!	!	!	!	!
8g 8e-\	.	.	.	.	.	.	.	.	.	.	.	.	.	.	.	.	.	4A-/	.	4e-\	.	4ee-\	.	4gg\	.	4gg\	.	4ee-\	.
8B-/J	.	8gg\	.	.	.	.	.	.	.	.	.	.	.	.	.	8b-\)	.	.	.	.	.	.	.	.	.	.	.	.	.
!LO:TX:t=P:problem:mixed beam	!	!	!	!	!	!	!	!	!	!	!	!	!	!	!	!	!	!LO:SIC:v:s=4G/	!	!	!	!	!	!	!	!	!	!	!
8gL 8e-\	.	4bb-\	.	.	.	.	.	.	.	2E-\	-men	4B-\	-men	2g\	-men	2b-\	-men	4A-/	.	4e-\	.	4ee-\	.	4gg\	.	4gg\	.	4ee-\	.
*	*	*	*	*	*	*	*	*	*	*	*Xij	*	*Xij	*	*	*	*	*	*	*	*	*	*	*	*	*	*	*	*
8B-/	.	.	.	.	.	.	.	.	.	.	.	.	.	.	.	.	.	.	.	.	.	.	.	.	.	.	.	.	.
!	!	!	!	!	!	!	!	!	!	!	!	!	!	!	!	!	!	!LO:SIC:v:s=4G/	!	!	!	!	!	!	!	!	!	!	!
8g 8e-\	.	4r	.	.	.	.	.	.	.	.	.	4r	.	.	.	.	.	4A-/	.	4e-\	.	4ee-\	.	4gg\	.	4gg\	.	4ee-\	.
8B-/J	.	.	.	.	.	.	.	.	.	.	.	.	.	.	.	.	.	.	.	.	.	.	.	.	.	.	.	.	.
!	!	!	!	!	!	!	!	!LO:LB:g=original	!	!	!	!	!	!	!	!	!	!	!	!	!	!	!	!	!	!	!	!	!
=56	=56	=56	=56	=56	=56	=56	=56	=56	=56	=56	=56	=56	=56	=56	=56	=56	=56	=56	=56	=56	=56	=56	=56	=56	=56	=56	=56	=56	=56
!LO:TX:t=P:problem:mixed beam	!	!	!	!	!	!	!	!	!LO:DY:a:t=fr	!	!	!	!	!	!	!LO:TX:a:t=1.	!	!	!	!	!	!	!	!	!	!	!	!	!
8a-L 8f\	.	4r	.	1B-	.	1d	.	1f	f	1r	.	1r	.	1r	.	1r	.	4r	.	4r	.	4r	.	4r	.	4r	.	4r	.
8B-/	.	.	.	.	.	.	.	.	.	.	.	.	.	.	.	.	.	.	.	.	.	.	.	.	.	.	.	.	.
8a- 8f\	.	(8b-\L	.	.	.	.	.	.	.	.	.	.	.	.	.	.	.	4B-/	.	4f\	.	4dd\	.	4ff\	.	4ff\	.	4ff\	.
8B-/J	.	8cc\J)	.	.	.	.	.	.	.	.	.	.	.	.	.	.	.	.	.	.	.	.	.	.	.	.	.	.	.
!LO:TX:t=P:problem:mixed beam	!	!	!	!	!	!	!	!	!	!	!	!	!	!	!	!	!	!	!	!	!	!	!	!	!	!	!	!	!
8a-L 8f\	.	(8dd\L	.	.	.	.	.	.	.	.	.	.	.	.	.	.	.	4B-/	.	4f\	.	4dd\	.	4ff\	.	4ff\	.	4ff\	.
8B-/	.	8ee-\	.	.	.	.	.	.	.	.	.	.	.	.	.	.	.	.	.	.	.	.	.	.	.	.	.	.	.
8a- 8f\	.	8ff\	.	.	.	.	.	.	.	.	.	.	.	.	.	.	.	4B-/	.	4f\	.	4dd\	.	4ff\	.	4ff\	.	4ff\	.
!	!	!LO:TX:t=P:problem:partia kończy się w takcie nr 56	!	!	!	!	!	!	!	!	!	!	!	!	!	!	!	!	!	!	!	!	!	!	!	!	!	!	!
8B-/J	.	8dd\J)	.	.	.	.	.	.	.	.	.	.	.	.	.	.	.	.	.	.	.	.	.	.	.	.	.	.	.
!LO:PB:g=original	!	!LO:PB:g=original	!	!	!	!	!	!	!	!	!	!	!	!	!	!	!	!	!	!	!	!	!	!	!	!	!	!	!
=57	=57	=57	=57	=57	=57	=57	=57	=57	=57	=57	=57	=57	=57	=57	=57	=57	=57	=57	=57	=57	=57	=57	=57	=57	=57	=57	=57	=57	=57
*clefF4	*	*	*	*tremolo	*	*tremolo	*	*	*	*	*	*	*	*	*	*	*	*	*	*	*	*	*	*	*	*	*	*	*
!LO:TX:a:t=Tut	!	!	!	!	!LO:DY:a	!	!LO:DY:a:t=for	!	!	!	!	!	!	!	!	!	!	!	!	!	!	!	!	!	!	!	!	!	!
8E-\L	5 3	1ryy	.	8e-\L	f	16ee-\LL	f	16gg\LL	.	2E-\	A-	2B-\	A-	2g\	A-	2ee-\	A-	2G/	.	2e-\	.	2ee-\	.	2gg\	.	2gg\	.	2ee-\	.
.	.	.	.	.	.	16ee-\	.	16gg\	.	.	.	.	.	.	.	.	.	.	.	.	.	.	.	.	.	.	.	.	.
8E-\	.	.	.	8e-\	.	16ee-\	.	16gg\	.	.	.	.	.	.	.	.	.	.	.	.	.	.	.	.	.	.	.	.	.
.	.	.	.	.	.	16ee-\	.	16gg\JJ	.	.	.	.	.	.	.	.	.	.	.	.	.	.	.	.	.	.	.	.	.
*	*	*	*	*	*	*	*	*tremolo	*	*	*	*	*	*	*	*	*	*	*	*	*	*	*	*	*	*	*	*	*
8E-\	.	.	.	8e-\	.	16ee-\	.	16gg\LL	.	.	.	.	.	.	.	.	.	.	.	.	.	.	.	.	.	.	.	.	.
.	.	.	.	.	.	16ee-\	.	16gg\	.	.	.	.	.	.	.	.	.	.	.	.	.	.	.	.	.	.	.	.	.
8E-\J	.	.	.	8e-\J	.	16ee-\	.	16gg\	.	.	.	.	.	.	.	.	.	.	.	.	.	.	.	.	.	.	.	.	.
.	.	.	.	.	.	16ee-\JJ	.	16gg\JJ	.	.	.	.	.	.	.	.	.	.	.	.	.	.	.	.	.	.	.	.	.
8C/L	5 3	.	.	8c\L	.	16ee-\LL	.	16gg\LL	.	2c\	-men	2e-\	-men	2g\	-men	2ee-\	-men	2e-\	.	2g\	.	2ee-\	.	2gg\	.	2gg\	.	2gg\	.
.	.	.	.	.	.	16ee-\	.	16gg\	.	.	.	.	.	.	.	.	.	.	.	.	.	.	.	.	.	.	.	.	.
8C/	.	.	.	8c\	.	16ee-\	.	16gg\	.	.	.	.	.	.	.	.	.	.	.	.	.	.	.	.	.	.	.	.	.
.	.	.	.	.	.	16ee-\	.	16gg\	.	.	.	.	.	.	.	.	.	.	.	.	.	.	.	.	.	.	.	.	.
8C/	.	.	.	8c\	.	16ee-\	.	16gg\	.	.	.	.	.	.	.	.	.	.	.	.	.	.	.	.	.	.	.	.	.
.	.	.	.	.	.	16ee-\	.	16gg\	.	.	.	.	.	.	.	.	.	.	.	.	.	.	.	.	.	.	.	.	.
8C/J	.	.	.	8c\J	.	16ee-\	.	16gg\	.	.	.	.	.	.	.	.	.	.	.	.	.	.	.	.	.	.	.	.	.
.	.	.	.	.	.	16ee-\JJ	.	16gg\JJ	.	.	.	.	.	.	.	.	.	.	.	.	.	.	.	.	.	.	.	.	.
!	!	!	!	!	!	!	!	!	!	!	!	!	!	!	!	!	!	!	!	!	!	!	!	!LO:LB:g=original	!	!	!	!	!
=58	=58	=58	=58	=58	=58	=58	=58	=58	=58	=58	=58	=58	=58	=58	=58	=58	=58	=58	=58	=58	=58	=58	=58	=58	=58	=58	=58	=58	=58
*	*	*	*	*	*	*	*	*	*	*	*	*	*ij	*	*ij	*	*ij	*	*	*	*	*	*	*	*	*	*	*	*
8A-\L	6 3	1ryy	.	8c\L	.	16ee-\LL	.	16ff\LL	.	(2A-X\	A-	2e-\	A-	2f\	A-	2ee-\	A-	2B-/	.	2f\	.	2ee-\	.	2ff\	.	2ff\	.	2ff\	.
.	.	.	.	.	.	16ee-\	.	16ff\	.	.	.	.	.	.	.	.	.	.	.	.	.	.	.	.	.	.	.	.	.
8A-\	.	.	.	8c\	.	16ee-\	.	16ff\	.	.	.	.	.	.	.	.	.	.	.	.	.	.	.	.	.	.	.	.	.
.	.	.	.	.	.	16ee-\	.	16ff\	.	.	.	.	.	.	.	.	.	.	.	.	.	.	.	.	.	.	.	.	.
8A-\	.	.	.	8c\	.	16ee-\	.	16ff\	.	.	.	.	.	.	.	.	.	.	.	.	.	.	.	.	.	.	.	.	.
.	.	.	.	.	.	16ee-\	.	16ff\	.	.	.	.	.	.	.	.	.	.	.	.	.	.	.	.	.	.	.	.	.
8A-\J	.	.	.	8c\J	.	16ee-\	.	16ff\	.	.	.	.	.	.	.	.	.	.	.	.	.	.	.	.	.	.	.	.	.
.	.	.	.	.	.	16ee-\JJ	.	16ff\JJ	.	.	.	.	.	.	.	.	.	.	.	.	.	.	.	.	.	.	.	.	.
8B-\L	7 5	.	.	8d\L	.	16dd\LL	.	16bb-\LL	.	2B-\)	.	2d\	-men	2f\	-men	2dd\	-men	2B-/	.	2f\	.	2dd\	.	2bb-\	.	2bb-\	.	2ff\	.
*	*	*	*	*	*	*	*	*	*	*	*	*	*Xij	*	*	*	*	*	*	*	*	*	*	*	*	*	*	*	*
.	.	.	.	.	.	16dd\	.	16bb-\	.	.	.	.	.	.	.	.	.	.	.	.	.	.	.	.	.	.	.	.	.
8B-\	.	.	.	8d\	.	16dd\	.	16bb-\	.	.	.	.	.	.	.	.	.	.	.	.	.	.	.	.	.	.	.	.	.
.	.	.	.	.	.	16dd\	.	16bb-\	.	.	.	.	.	.	.	.	.	.	.	.	.	.	.	.	.	.	.	.	.
8B-\	.	.	.	8d\	.	16dd\	.	16bb-\	.	.	.	.	.	.	.	.	.	.	.	.	.	.	.	.	.	.	.	.	.
.	.	.	.	.	.	16dd\	.	16bb-\	.	.	.	.	.	.	.	.	.	.	.	.	.	.	.	.	.	.	.	.	.
8B-\J	.	.	.	8d\J	.	16dd\	.	16bb-\	.	.	.	.	.	.	.	.	.	.	.	.	.	.	.	.	.	.	.	.	.
.	.	.	.	.	.	16dd\JJ	.	16bb-\JJ	.	.	.	.	.	.	.	.	.	.	.	.	.	.	.	.	.	.	.	.	.
!	!	!	!	!	!	!	!	!	!	!	!	!LO:LB:g=original	!	!	!	!	!	!	!	!	!	!	!	!	!	!	!	!	!
=59	=59	=59	=59	=59	=59	=59	=59	=59	=59	=59	=59	=59	=59	=59	=59	=59	=59	=59	=59	=59	=59	=59	=59	=59	=59	=59	=59	=59	=59
8E-\L	5 3	1ryy	.	8e-\L	.	16ee-\LL	.	16gg\LL	.	2E-\	-men	2B-\	A-	2g\	A-	2ee-\	A-	2e-\	.	2g\	.	2ee-\	.	2gg\	.	2gg\	.	2gg\	.
.	.	.	.	.	.	16ee-\	.	16gg\	.	.	.	.	.	.	.	.	.	.	.	.	.	.	.	.	.	.	.	.	.
8E-\	.	.	.	8e-\	.	16ee-\	.	16gg\	.	.	.	.	.	.	.	.	.	.	.	.	.	.	.	.	.	.	.	.	.
.	.	.	.	.	.	16ee-\	.	16gg\	.	.	.	.	.	.	.	.	.	.	.	.	.	.	.	.	.	.	.	.	.
8E-\	.	.	.	8e-\	.	16ee-\	.	16gg\	.	.	.	.	.	.	.	.	.	.	.	.	.	.	.	.	.	.	.	.	.
.	.	.	.	.	.	16ee-\	.	16gg\	.	.	.	.	.	.	.	.	.	.	.	.	.	.	.	.	.	.	.	.	.
8E-\J	.	.	.	8e-\J	.	16ee-\	.	16gg\	.	.	.	.	.	.	.	.	.	.	.	.	.	.	.	.	.	.	.	.	.
.	.	.	.	.	.	16ee-\JJ	.	16gg\JJ	.	.	.	.	.	.	.	.	.	.	.	.	.	.	.	.	.	.	.	.	.
8c\L	5 3	.	.	8cc\L	.	16gg\LL	.	16eee-\LL	.	2c\	A-	2e-\	-men	2g\	-men	2gg\	-men	2e-\	.	2g\	.	2ee-\	.	2gg\	.	2gg\	.	2gg\	.
*	*	*	*	*	*	*	*	*	*	*	*	*	*	*	*Xij	*	*Xij	*	*	*	*	*	*	*	*	*	*	*	*
.	.	.	.	.	.	16gg\	.	16eee-\	.	.	.	.	.	.	.	.	.	.	.	.	.	.	.	.	.	.	.	.	.
8c\	.	.	.	8cc\	.	16gg\	.	16eee-\	.	.	.	.	.	.	.	.	.	.	.	.	.	.	.	.	.	.	.	.	.
.	.	.	.	.	.	16gg\	.	16eee-\	.	.	.	.	.	.	.	.	.	.	.	.	.	.	.	.	.	.	.	.	.
8c\	.	.	.	8cc\	.	16gg\	.	16eee-\	.	.	.	.	.	.	.	.	.	.	.	.	.	.	.	.	.	.	.	.	.
.	.	.	.	.	.	16gg\	.	16eee-\	.	.	.	.	.	.	.	.	.	.	.	.	.	.	.	.	.	.	.	.	.
8c\J	.	.	.	8cc\J	.	16gg\	.	16eee-\	.	.	.	.	.	.	.	.	.	.	.	.	.	.	.	.	.	.	.	.	.
.	.	.	.	.	.	16gg\JJ	.	16eee-\JJ	.	.	.	.	.	.	.	.	.	.	.	.	.	.	.	.	.	.	.	.	.
=60	=60	=60	=60	=60	=60	=60	=60	=60	=60	=60	=60	=60	=60	=60	=60	=60	=60	=60	=60	=60	=60	=60	=60	=60	=60	=60	=60	=60	=60
!	!	!	!	!	!	!	!	!	!	!	!	!	!	!LO:N:vis=2.	!	!	!	!	!	!	!	!	!	!	!	!	!	!	!
8A-\L	6 5	1ryy	.	8a-\L	.	16ff\LL	.	16eee-\LL	.	(2A-\	.	2e-\	A-	1a-	A-	1ff	A-	2B-/	.	2f\	.	2ee-\	.	2ff\	.	2ff\	.	2ff\	.
.	.	.	.	.	.	16ff\	.	16eee-\	.	.	.	.	.	.	.	.	.	.	.	.	.	.	.	.	.	.	.	.	.
8A-\	.	.	.	8a-\	.	16ff\	.	16eee-\	.	.	.	.	.	.	.	.	.	.	.	.	.	.	.	.	.	.	.	.	.
.	.	.	.	.	.	16ff\	.	16eee-\	.	.	.	.	.	.	.	.	.	.	.	.	.	.	.	.	.	.	.	.	.
8A-\	.	.	.	8a-\	.	16ff\	.	16eee-\	.	.	.	.	.	.	.	.	.	.	.	.	.	.	.	.	.	.	.	.	.
.	.	.	.	.	.	16ff\	.	16eee-\	.	.	.	.	.	.	.	.	.	.	.	.	.	.	.	.	.	.	.	.	.
8A-\J	.	.	.	8a-\J	.	16ff\	.	16eee-\	.	.	.	.	.	.	.	.	.	.	.	.	.	.	.	.	.	.	.	.	.
.	.	.	.	.	.	16ff\JJ	.	16eee-\JJ	.	.	.	.	.	.	.	.	.	.	.	.	.	.	.	.	.	.	.	.	.
8B-\L	7 5	.	.	8b-\L	.	16ff\LL	.	16ddd\LL	.	2B-\)	.	2d\	.	.	.	.	.	2B-/	.	2f\	.	2dd\	.	2bb-\	.	2bb-\	.	2ff\	.
.	.	.	.	.	.	16ff\	.	16ddd\	.	.	.	.	.	.	.	.	.	.	.	.	.	.	.	.	.	.	.	.	.
8B-\	.	.	.	8b-\	.	16ff\	.	16ddd\	.	.	.	.	.	.	.	.	.	.	.	.	.	.	.	.	.	.	.	.	.
.	.	.	.	.	.	16ff\	.	16ddd\	.	.	.	.	.	.	.	.	.	.	.	.	.	.	.	.	.	.	.	.	.
8B-\	.	.	.	8b-\	.	16ff\	.	16ddd\	.	.	.	.	.	.	.	.	.	.	.	.	.	.	.	.	.	.	.	.	.
.	.	.	.	.	.	16ff\	.	16ddd\	.	.	.	.	.	.	.	.	.	.	.	.	.	.	.	.	.	.	.	.	.
8B-\J	.	.	.	8b-\J	.	16ff\	.	16ddd\	.	.	.	.	.	.	.	.	.	.	.	.	.	.	.	.	.	.	.	.	.
.	.	.	.	.	.	16ff\JJ	.	16ddd\JJ	.	.	.	.	.	.	.	.	.	.	.	.	.	.	.	.	.	.	.	.	.
*Xtremolo	*	*	*	*Xtremolo	*	*Xtremolo	*	*Xtremolo	*	*	*	*	*	*	*	*	*	*	*	*	*	*	*	*	*	*	*	*	*
!	!	!	!	!	!	!LO:LB:g=original	!	!	!	!	!	!	!	!	!	!	!	!	!	!LO:LB:g=original	!	!	!	!	!	!	!	!	!
=61	=61	=61	=61	=61	=61	=61	=61	=61	=61	=61	=61	=61	=61	=61	=61	=61	=61	=61	=61	=61	=61	=61	=61	=61	=61	=61	=61	=61	=61
4E-\	5 3	1ryy	.	4b-\	.	4gg\	.	4eee-'\	.	2E-\	-men	2e-\	-men	2b-\	-men	2gg\	-men	1e-	.	1g	.	4ee-\	.	4gg\	.	4gg\	.	1gg	.
4r	.	.	.	4r	.	4b-/	.	4bb-'\	.	.	.	.	.	.	.	.	.	.	.	.	.	4r	.	4r	.	4r	.	.	.
2r	.	.	.	2r	.	4g/	.	4gg'\	.	2r	.	2r	.	2r	.	2r	.	.	.	.	.	2r	.	2r	.	2r	.	.	.
.	.	.	.	.	.	4e-/	.	4ee-'\	.	.	.	.	.	.	.	.	.	.	.	.	.	.	.	.	.	.	.	.	.
!	!	!	!	!LO:LB:g=original	!	!	!	!	!	!	!	!	!	!	!	!	!	!	!	!	!	!	!	!	!	!	!	!	!
=62	=62	=62	=62	=62	=62	=62	=62	=62	=62	=62	=62	=62	=62	=62	=62	=62	=62	=62	=62	=62	=62	=62	=62	=62	=62	=62	=62	=62	=62
!	!	!	!LO:DY:t=pio:a=2	!	!	!	!	!	!	!	!	!	!	!	!	!	!	!	!	!	!	!	!	!LO:TX:a:i:t=Solo	!	!	!	!	!
4BB-/	.	1ryy	p	2B-/	.	1a-	.	1dd	.	2B-\	A-	1f	A-	1a-	A-	1dd	A-	1B-	.	1f	.	4r	.	4r	.	4r	.	1ff	.
4r	.	.	.	.	.	.	.	.	.	.	.	.	.	.	.	.	.	.	.	.	.	4ff\	.	4aa-\	.	4aa-\	.	.	.
2r	.	.	.	2B-/	.	.	.	.	.	2BB-/	.	.	.	.	.	.	.	.	.	.	.	4dd\	.	4ff\	.	4ff\	.	.	.
.	.	.	.	.	.	.	.	.	.	.	.	.	.	.	.	.	.	.	.	.	.	4b-\	.	4dd\	.	4dd\	.	.	.
!	!	!	!	!	!	!	!	!	!	!	!	!	!	!	!	!	!	!	!	!	!	!LO:LB:g=original	!	!	!	!	!	!	!
=63	=63	=63	=63	=63	=63	=63	=63	=63	=63	=63	=63	=63	=63	=63	=63	=63	=63	=63	=63	=63	=63	=63	=63	=63	=63	=63	=63	=63	=63
4E-\	.	1ryy	.	4B-/	.	4g/	.	4ee-'\	.	2E-\	-men	2B-\	-men	4g\	-men	4ee-\	-men	1G	.	1e-	.	2.g/	.	1ee-	.	1ee-	.	1ee-	.
4r	.	.	.	4r	.	4ee-\	.	4gg'\	.	.	.	.	.	4r	.	4r	.	.	.	.	.	.	.	.	.	.	.	.	.
2r	.	.	.	2r	.	4b-\	.	4ee-'\	.	2r	.	2r	.	2r	.	2r	.	.	.	.	.	.	.	.	.	.	.	.	.
.	.	.	.	.	.	4g\	.	4b-\	.	.	.	.	.	.	.	.	.	.	.	.	.	4r	.	.	.	.	.	.	.
=64	=64	=64	=64	=64	=64	=64	=64	=64	=64	=64	=64	=64	=64	=64	=64	=64	=64	=64	=64	=64	=64	=64	=64	=64	=64	=64	=64	=64	=64
*	*	*	*	*	*	*	*	*	*	*	*ij	*	*ij	*	*	*	*	*	*	*	*	*	*	*	*	*	*	*	*
4BB-/	.	1ryy	.	1B-	.	1f	.	1a-	.	1BB-	A-	1f	A-	1a-	A-	1dd	A-	1B-	.	1f	.	4r	.	4r	.	4r	.	1ff	.
4r	.	.	.	.	.	.	.	.	.	.	.	.	.	.	.	.	.	.	.	.	.	4a-\	.	4dd\	.	4dd\	.	.	.
2r	.	.	.	.	.	.	.	.	.	.	.	.	.	.	.	.	.	.	.	.	.	4a-\	.	4ff\	.	4ff\	.	.	.
.	.	.	.	.	.	.	.	.	.	.	.	.	.	.	.	.	.	.	.	.	.	4a-\	.	4dd\	.	4dd\	.	.	.
!LO:LB:g=original	!	!	!	!	!	!	!	!LO:LB:g=original	!	!	!	!	!	!	!	!	!	!	!	!	!	!	!	!	!	!	!	!	!
=65	=65	=65	=65	=65	=65	=65	=65	=65	=65	=65	=65	=65	=65	=65	=65	=65	=65	=65	=65	=65	=65	=65	=65	=65	=65	=65	=65	=65	=65
!LO:TX:a:t=Tut	!	!	!	!	!LO:DY:a	!	!	!	!LO:DY:a:t=fr	!	!	!	!	!	!	!	!	!	!	!	!	!	!	!	!	!	!	!	!
4E-\	5_ 3_	1ryy	.	4B-/	f	4e-/	.	4g/	f	2E-\	-men	2B-\	-men	2g\	-men	2ee-\	-men	4G/	.	4e-\	.	4r	.	4ee-\	.	4ee-\	.	4ee-\	.
*	*	*	*	*	*	*	*	*	*	*	*Xij	*	*Xij	*	*	*	*	*	*	*	*	*	*	*	*	*	*	*	*
4e-\	.	.	.	4B-/	.	4b- 4g/	.	4gg 4b- 4e-\	.	.	.	.	.	.	.	.	.	4G/	.	4e-\	.	4b-\	.	4ee-\	.	4ee-\	.	4ee-\	.
4B-\	x	.	.	4B-/	.	4b- 4g/	.	4gg 4b- 4e-\	.	2E-\	A-	2B-\	A-	2g\	A-	2ee-\	A-	4G/	.	4e-\	.	4b-\	.	4ee-\	.	4ee-\	.	4ee-\	.
4G\	.	.	.	4B-/	.	4b- 4g/	.	4gg 4b- 4e-\	.	.	.	.	.	.	.	.	.	4G/	.	4e-\	.	4b-\	.	4ee-\	.	4ee-\	.	4ee-\	.
=66	=66	=66	=66	=66	=66	=66	=66	=66	=66	=66	=66	=66	=66	=66	=66	=66	=66	=66	=66	=66	=66	=66	=66	=66	=66	=66	=66	=66	=66
2E-\	.	1ryy	.	2B-/	.	2b- 2g/	.	4gg 4b- 4e-\	.	2E-\	-men	2B-\	-men	2g\	-men	2ee-\	-men.	2G/	.	4e-\	.	2b-\	.	2ee-\	.	2ee-\	.	4ee-\	.
.	.	.	.	.	.	.	.	4r	.	.	.	.	.	.	.	.	.	.	.	4r	.	.	.	.	.	.	.	4r	.
2r	.	.	.	2r	.	2r	.	2r	.	2r	.	2r	.	2r	.	2r	.	2r	.	2r	.	2r	.	2r	.	2r	.	2r	.
==	==	==	==	==	==	==	==	==	==	==	==	==	==	==	==	==	==	==	==	==	==	==	==	==	==	==	==	==	==
*-	*-	*-	*-	*-	*-	*-	*-	*-	*-	*-	*-	*-	*-	*-	*-	*-	*-	*-	*-	*-	*-	*-	*-	*-	*-	*-	*-	*-	*-
!!!system-decoration: [(g1)][(g2)][(g3)][(g4)]{(s14,s15)}
!!!RDF**kern: | = vertical stroke
!!!ENC: Andrzej Kubiczek
!!!END: 2020-10-16
!!!ENC: Andrzej Kubiczek
!!!END: 2022-01-18
